!!!!SEGMENT: Jos/Jos2514-Vultum_tuum_deprecabuntur.krn
!!!COM: Josquin des Prez
!!!CDT: ~1450-1521/08/27
!!!OTL@@LAT: Vultum tuum deprecabuntur [7 sections]
!!!OTL2@@LAT: Sancta dei genitrix
!!!OTL3@@LAT: O intemerata virgo
!!!OTL4@@LAT: O Maria
!!!OTL5@@LAT: Mente tota tibi supplicamus
!!!OTL6@@LAT: Ora pro nobis
!!!OTL7@@LAT: Christi, fili dei
!!!AGN: Motet; Motet cycle
!!!SCT: NJE 25.14
!!!SCA: New Josquin Edition 25.14
!!!jrpid: Jos2514
!!!voices: 4
**kern	**text	**kern	**text	**kern	**text	**text	**kern	**text
*staff4	*	*staff3	*	*staff2	*	*	*staff1	*
*Ivox	*	*Ivox	*	*Ivox	*	*	*Ivox	*
*I"Bassus	*	*I"Tenor	*	*I"Altus	*	*	*I"Superius	*
*I'B	*	*I'T	*	*I'A	*	*	*I'S	*
*>[A,B,C,D,E,F]	*	*>[A,B,C,D,E,F]	*	*>[A,B,C,D,E,F]	*	*	*>[A,B,C,D,E,F]	*
*>Part1[A]	*	*>Part1[A]	*	*>Part1[A]	*	*	*>Part1[A]	*
*>Part2[B]	*	*>Part2[B]	*	*>Part2[B]	*	*	*>Part2[B]	*
*>Part3[C]	*	*>Part3[C]	*	*>Part3[C]	*	*	*>Part3[C]	*
*>Part4[D]	*	*>Part4[D]	*	*>Part4[D]	*	*	*>Part4[D]	*
*>Part5[E]	*	*>Part5[E]	*	*>Part5[E]	*	*	*>Part5[E]	*
*>Part6[F]	*	*>Part6[F]	*	*>Part6[F]	*	*	*>Part6[F]	*
*clefF4	*	*clefGv2	*	*clefGv2	*	*	*clefG2	*
*k[b-]	*	*k[b-]	*	*k[b-]	*	*	*k[b-]	*
*>A	*	*>A	*	*>A	*	*	*>A	*
*M2/1	*	*M2/1	*	*M2/1	*	*	*M2/1	*
*met(C|)	*	*met(C|)	*	*met(C|)	*	*	*met(C|)	*
!!section: Prima pars: Vultum tuum deprecabuntur
=1-	=1-	=1-	=1-	=1-	=1-	=1-	=1-	=1-
[0G	Vul-	0G	Vul-	[0d	Vul-	&	[0g	Vul-
=2	=2	=2	=2	=2	=2	=2	=2	=2
0G]	.	0B-	.	0d_	.	.	0g]	.
=3	=3	=3	=3	=3	=3	=3	=3	=3
0D	.	1A	-tum	0d]	.	.	0f	-tum
.	.	[1d	.	.	.	.	.	.
=4	=4	=4	=4	=4	=4	=4	=4	=4
1.E-i	-tum	1d]	.	1.G	tum	.	0g	.
.	.	1c	.	.	.	.	.	.
2D\	.	.	.	2A/	.	.	.	.
=5	=5	=5	=5	=5	=5	=5	=5	=5
0BB-	.	1d	.	1.B-	.	.	1f	tu-
.	.	[1f	tu-	.	.	.	[1d	.
.	.	.	.	2c\	.	.	.	.
=6	=6	=6	=6	=6	=6	=6	=6	=6
1.B-	tu-	2f\]	.	1d	.	.	2d/]	.
.	.	2e\	.	.	.	.	2e/	.
.	.	2d\	.	[1d	tu-	.	1f	.
2A\	.	2c\	.	.	.	.	.	.
=7	=7	=7	=7	=7	=7	=7	=7	=7
1G	.	1B-	.	2d\]	.	.	1g	.
.	.	.	.	2e\	.	.	.	.
1F	.	[1c	.	1f	.	.	[1a	.
=8	=8	=8	=8	=8	=8	=8	=8	=8
0E-i	.	2c\]	.	1g	.	.	2a/]	.
.	.	2B-\	.	.	.	.	2g/	.
.	.	1G	.	1c	.	.	[1g	.
=9	=9	=9	=9	=9	=9	=9	=9	=9
0D	-um	0A	.	0d	.	.	1g]	.
.	.	.	.	.	.	.	1f#i	.
=10	=10	=10	=10	=10	=10	=10	=10	=10
1r	.	[0G	-um	0B-	um	.	[0g	-um
[1d	de-	.	.	.	.	.	.	.
=11	=11	=11	=11	=11	=11	=11	=11	=11
2d\]	.	0G]	.	1G	.	.	0g]	.
2c\	.	.	.	.	.	.	.	.
[1B-	.	.	.	[1d	de-	.	.	.
=12	=12	=12	=12	=12	=12	=12	=12	=12
2B-\]	.	0B-	de-	2d\]	.	.	0r	.
2A\	.	.	.	2c\	.	.	.	.
1G	.	.	.	1B-	.	.	.	.
=13	=13	=13	=13	=13	=13	=13	=13	=13
1F	.	1c	-pre-	1A	.	.	0r	.
1BB-	-pre-	[1d	-ca-	1B-	-pre-	.	.	.
=14	=14	=14	=14	=14	=14	=14	=14	=14
0B-	-ca-	1d]	.	0G	-ca-	.	0r	.
.	.	1B-	.	.	.	.	.	.
=15	=15	=15	=15	=15	=15	=15	=15	=15
1A	.	1c	.	1F	.	.	0r	.
[1G	-bun-	[1e-i	-bun-	[1B-	-bun-	.	.	.
=16	=16	=16	=16	=16	=16	=16	=16	=16
2G\]	.	2e-\]	.	1B-]	.	.	0r	.
2F\	.	2d\	.	.	.	.	.	.
1D	-tur,	[1d	-tur,	1A	.	.	.	.
=17	=17	=17	=17	=17	=17	=17	=17	=17
0G	de-	1d]	.	1B-	-tur,	.	0r	.
.	.	1B-	de-	1G	de-	.	.	.
=18	=18	=18	=18	=18	=18	=18	=18	=18
1F	.	1c	-pre-	1A	.	.	0r	.
1BB-	-pre-	[1d	-ca-	1B-	-pre-	.	.	.
=19	=19	=19	=19	=19	=19	=19	=19	=19
0B-	-ca-	1d]	.	1G	-ca-	.	0r	.
.	.	1B-	.	1d	.	.	.	.
=20	=20	=20	=20	=20	=20	=20	=20	=20
1A	.	1c	.	1c	.	.	0r	.
[1G	-bun-	[1e-i	-bun-	[1B-	-bun-	.	.	.
=21	=21	=21	=21	=21	=21	=21	=21	=21
2G\]	.	2e-\]	.	2B-\]	.	.	0r	.
2F\	.	2d\	.	2A/	.	.	.	.
1D	.	[1d	.	[1A	.	.	.	.
=22	=22	=22	=22	=22	=22	=22	=22	=22
0E-i	.	1d]	.	1A]	.	.	0r	.
.	.	1c	.	1G	.	.	.	.
=23	=23	=23	=23	=23	=23	=23	=23	=23
[0D	-tur	[0d	-tur	1A	-tur,	.	1r	.
.	.	.	.	1F	.	.	[1a	de-
=24	=24	=24	=24	=24	=24	=24	=24	=24
0D]	.	0d]	.	1.f	de-	.	1a]	.
.	.	.	.	.	.	.	1f	.
.	.	.	.	4e\	.	.	.	.
.	.	.	.	4d\	.	.	.	.
=25	=25	=25	=25	=25	=25	=25	=25	=25
0r	.	0r	.	1e	.	.	1g	-pre-
.	.	.	.	1d	-pre-	.	[1b-	-ca-
=26	=26	=26	=26	=26	=26	=26	=26	=26
0r	.	0r	.	1.g	-ca-	.	1b-]	.
.	.	.	.	.	.	.	1g	.
.	.	.	.	4f\	.	.	.	.
.	.	.	.	4e\	.	.	.	.
=27	=27	=27	=27	=27	=27	=27	=27	=27
0r	.	0r	.	1f	-bun-	.	1a	-bun-
.	.	.	.	[1g	-tur	.	1b-	.
=28	=28	=28	=28	=28	=28	=28	=28	=28
0C	om-	0e-i	om-	1g]	.	.	0g	-tur
.	.	.	.	1c	om-	.	.	.
=29	=29	=29	=29	=29	=29	=29	=29	=29
[0G	-nes,	0d	-nes,	1B-	-nes,	.	1r	.
.	.	.	.	1G	.	.	[1b-	om-
=30	=30	=30	=30	=30	=30	=30	=30	=30
0G]	.	1d	om-	1.d	om-	.	1b-]	.
.	.	1B-	.	.	.	.	1g	.
.	.	.	.	2e\	.	.	.	.
=31	=31	=31	=31	=31	=31	=31	=31	=31
1F	om-	1c	.	1f	.	.	1a	.
1BB-	.	1d	.	1d	.	.	1b-	.
=32	=32	=32	=32	=32	=32	=32	=32	=32
0C	-nes	0e-i	-nes	0c	-nes	.	0g	-nes
=33	=33	=33	=33	=33	=33	=33	=33	=33
0G	.	0d	.	1.B-	di-	.	1r	.
.	.	.	.	.	.	.	[1b-	di-
.	.	.	.	2A/	.	.	.	.
=34	=34	=34	=34	=34	=34	=34	=34	=34
1r	.	0e-i	di-	2.G/	.	.	2b-\]	.
.	.	.	.	.	.	.	2a/	.
.	.	.	.	4F/	.	.	.	.
1C	di-	.	.	1c	.	.	1g	.
=35	=35	=35	=35	=35	=35	=35	=35	=35
1D	-vi-	0d	-vi-	0A	-vi-	.	1f	-vi-
1F	.	.	.	.	.	.	1a	.
=36	=36	=36	=36	=36	=36	=36	=36	=36
1E-i	-tes	1e-i	-tes	0B-	-tes	.	1g	-tes
1G	.	1d	.	.	.	.	1b-	.
=37	=37	=37	=37	=37	=37	=37	=37	=37
0F	.	1.f	ple-	0c	ple-	.	1a	ple-
.	.	.	.	.	.	.	1cc	.
.	.	2e-i\	.	.	.	.	.	.
=38	=38	=38	=38	=38	=38	=38	=38	=38
1r	.	1d	.	0f	.	.	1b-	.
1F	ple-	1c	.	.	.	.	[1a	.
=39	=39	=39	=39	=39	=39	=39	=39	=39
1G	.	1B-	.	1d	.	.	2a/]	.
.	.	.	.	.	.	.	2g/	.
1C	.	1c	.	1e-i	.	.	[1g	.
=40	=40	=40	=40	=40	=40	=40	=40	=40
0D	-bis,	0A	.	0d	.	.	1g]	.
.	.	.	.	.	.	.	1f#i	.
=41	=41	=41	=41	=41	=41	=41	=41	=41
1r	.	[0G	-bis	1B-	-bis	.	[0g	bis,
[1d	di-	.	.	1G	.	.	.	.
=42	=42	=42	=42	=42	=42	=42	=42	=42
2d\]	.	0G]	.	1.d	di-	.	0g]	.
2c\	.	.	.	.	.	.	.	.
2B-\	-vi-	.	.	.	.	.	.	.
2A\	.	.	.	2c\	.	.	.	.
=43	=43	=43	=43	=43	=43	=43	=43	=43
2G\	-tes	0r	.	2B-\	vi-	.	0r	.
2F\	.	.	.	2A/	.	.	.	.
2B-\	ple-	.	.	2G/	-tes	.	.	.
2c\	.	.	.	2F/	.	.	.	.
=44	=44	=44	=44	=44	=44	=44	=44	=44
1.d	.	0r	.	4B-\	ple-	.	0r	.
.	.	.	.	4c\	.	.	.	.
.	.	.	.	4d\	.	.	.	.
.	.	.	.	4e\	.	.	.	.
.	.	.	.	4f\	.	.	.	.
.	.	.	.	4g\	.	.	.	.
2c\	.	.	.	[2a\	.	.	.	.
=45	=45	=45	=45	=45	=45	=45	=45	=45
2B-\	.	0r	.	4a\]	.	.	0r	.
.	.	.	.	4g\	.	.	.	.
2G\	.	.	.	1g	.	.	.	.
1A	.	.	.	.	.	.	.	.
.	.	.	.	2f#i\	.	.	.	.
=46	=46	=46	=46	=46	=46	=46	=46	=46
0G	-bis.	0r	.	0g	bis.	.	0r	.
=47	=47	=47	=47	=47	=47	=47	=47	=47
*M3/1	*	*M3/1	*	*M3/1	*	*	*M3/1	*
*met(O/3)	*	*met(O/3)	*	*met(O/3)	*	*	*met(O/3)	*
1G	qui-	1g	qui-	1d	qui-	.	1b-	qui-
1G	-a	1g	-a	1d	-a	.	1b-	-a
1G	in	1g	in	1d	in	.	1b-	in
=48	=48	=48	=48	=48	=48	=48	=48	=48
0A	te	0f	te	0c	te	.	0cc	te
1A	so-	1f	so-	1c	so-	.	1a	so-
=49	=49	=49	=49	=49	=49	=49	=49	=49
0G	-la,	0g	-la,	0d	-la,	.	0b-	-la,
[1D	vir-	[1f	vir-	[1d	vir-	.	[1dd	vir-
=50	=50	=50	=50	=50	=50	=50	=50	=50
1D]	.	1f]	.	1d]	.	.	1dd]	.
0A	-gi-	0e	-gi-	0A	-gi-	.	0cc	-gi-
=51	=51	=51	=51	=51	=51	=51	=51	=51
0B-	-ne	0d	-ne	0f	-ne	.	0b-	-ne
[1F	Ma-	[1c	Ma-	[1f	Ma-	.	[1a	Ma-
=52	=52	=52	=52	=52	=52	=52	=52	=52
1F]	.	1c]	.	1f]	.	.	1a]	.
0G	-ri-	0B-	-ri-	0e	-ri-	.	0g	-ri-
=53	=53	=53	=53	=53	=53	=53	=53	=53
0.D	-a,	0A	-a,	0.d	-a,	.	0.f	-a,
.	.	1r	.	.	.	.	.	.
=54	=54	=54	=54	=54	=54	=54	=54	=54
1.F	om-	1.A	om-	0.r	.	.	0.r	.
2D\	.	2B-\	.	.	.	.	.	.
1E	-nis	1c	-nis	.	.	.	.	.
=55	=55	=55	=55	=55	=55	=55	=55	=55
0D	spes,	0d	spes	0.r	.	.	1.a	om-
.	.	.	.	.	.	.	2b-\	.
1r	.	1c	po-	.	.	.	1cc	-nis
=56	=56	=56	=56	=56	=56	=56	=56	=56
0.r	.	1B-	-si-	1.d	om-	.	0dd	spes
.	.	1G	.	.	.	.	.	.
.	.	.	.	2e\	.	.	.	.
.	.	1A	-ta	1f	-nis	.	1cc	po-
=57	=57	=57	=57	=57	=57	=57	=57	=57
0.r	.	0G	est,	0g	spes	.	1b-	-si-
.	.	.	.	.	.	.	1g	.
.	.	1r	.	1f	po-	.	1a	-ta
=58	=58	=58	=58	=58	=58	=58	=58	=58
0.r	.	0c	spes	1e	-si-	.	1.g	est,
.	.	.	.	1c	.	.	.	.
.	.	.	.	.	.	.	2a/	.
.	.	1B-	po-	1d	-ta	.	1b-	.
=59	=59	=59	=59	=59	=59	=59	=59	=59
0.r	.	1A	-si-	1.c	est,	.	0cc	spes
.	.	1F	.	.	.	.	.	.
.	.	.	.	2d\	.	.	.	.
.	.	1G	.	1e	po-	.	1b-	po-
=60	=60	=60	=60	=60	=60	=60	=60	=60
0D	spes	1F	.	1f	-si-	.	1a	si-
.	.	1.B-	.	1d	.	.	1f	.
1E	po-	.	.	1G	.	.	1g	.
.	.	2c\	.	.	.	.	.	.
=61	=61	=61	=61	=61	=61	=61	=61	=61
1.D	-si-	1.d	.	1A	.	.	1f	.
.	.	.	.	1.f	.	.	0a	.
2E\	.	2c\	.	.	.	.	.	.
1F	-ta	1A	-ta	.	.	.	.	.
.	.	.	.	2e\	.	.	.	.
=62	=62	=62	=62	=62	=62	=62	=62	=62
0G	est,	1B-	est,	1.d	.	.	1g	.
.	.	0G	.	.	.	.	0b-	-ta
.	.	.	.	2B-\	.	.	.	.
1G	po-	.	.	2.d\	-ta-	.	.	.
.	.	.	.	4e\	.	.	.	.
=63	=63	=63	=63	=63	=63	=63	=63	=63
1.F	-si-	1.c	po-	0f	est,	.	1a	est,
.	.	.	.	.	.	.	1.cc	po-
2G\	.	2B-\	.	.	.	.	.	.
1A	.	2.A/	.	1F	po-	.	.	.
.	.	.	.	.	.	.	2b-\	.
.	.	4G/	.	.	.	.	.	.
=64	=64	=64	=64	=64	=64	=64	=64	=64
1D	.	0d	.	1f	.	.	2a/	.
.	.	.	.	.	.	.	2g/	.
0G	.	.	.	1d	.	.	1.b-	-si-
.	.	1B-	.	[1e-i	-si-	.	.	.
.	.	.	.	.	.	.	2a/	.
=65	=65	=65	=65	=65	=65	=65	=65	=65
1C	.	1c	-si-	1e-]	.	.	0g	.
0D	-ta	0A	-ta	0d	-ta	.	.	.
.	.	.	.	.	.	.	1f#i	-ta
=66	=66	=66	=66	=66	=66	=66	=66	=66
0.Gl	est.	0.Gl	est.	0.dl	est.	.	0.gl	est.
!!LO:LB:i:g=z
=67||	=67||	=67||	=67||	=67||	=67||	=67||	=67||	=67||
*>B	*	*>B	*	*>B	*	*	*>B	*
!!section: Secunda pars: Sancta dei genitrix
!!!OMD: Secunda pars: Sancta dei genitrix
*M2/1	*	*M2/1	*	*M2/1	*	*	*M2/1	*
*met(C|)	*	*met(C|)	*	*met(C|)	*	*	*met(C|)	*
0r	.	0r	.	1.g	Sanc-	.	1.b-	Sanc-
.	.	.	.	2g\	-ta	.	2b-\	-ta
=68	=68	=68	=68	=68	=68	=68	=68	=68
0r	.	0r	.	1g	de-	.	1b-	de-
.	.	.	.	1a	-i	.	1a	-i
=69	=69	=69	=69	=69	=69	=69	=69	=69
0r	.	0r	.	1f	ge-	.	1.cc	ge-
.	.	.	.	1e	-ni-	.	.	.
.	.	.	.	.	.	.	2cc\	-ni-
=70	=70	=70	=70	=70	=70	=70	=70	=70
1.G	Sanc-	1.B-	Sanc-	1d	-trix,	.	0dd	-trix,
.	.	.	.	2G/	ge-	.	.	.
2G\	-ta	2B-\	-ta	[2d\	.	.	.	.
=71	=71	=71	=71	=71	=71	=71	=71	=71
1G	de-	1B-	de-	2d\]	.	.	0r	.
.	.	.	.	4c\	.	.	.	.
.	.	.	.	4B-\	.	.	.	.
1A	-i	1A	-i	2c\	.	.	.	.
.	.	.	.	[2A/	.	.	.	.
=72	=72	=72	=72	=72	=72	=72	=72	=72
1F	ge-	1.c	ge-	2A/]	.	.	0r	.
.	.	.	.	4G/	.	.	.	.
.	.	.	.	4F/	.	.	.	.
1E	-ni-	.	.	1G	-ni-	.	.	.
.	.	2c\	-ni-	.	.	.	.	.
=73	=73	=73	=73	=73	=73	=73	=73	=73
0D	-trix,	0d	-trix,	2A/	-trix,	.	1r	.
.	.	.	.	2B-\	.	.	.	.
.	.	.	.	2F/	.	.	1dd	vir-
.	.	.	.	[2f\	vir-	.	.	.
=74	=74	=74	=74	=74	=74	=74	=74	=74
0r	.	0r	.	2f\]	.	.	1dd	-go
.	.	.	.	2d\	-go	.	.	.
.	.	.	.	2e\	sem-	.	1cc	sem-
.	.	.	.	2f\	.	.	.	.
=75	=75	=75	=75	=75	=75	=75	=75	=75
0r	.	0r	.	2g\	-per	.	1b-	-per
.	.	.	.	2b-\	Ma-	.	.	.
.	.	.	.	4a\	-ri-	.	1cc	Ma-
.	.	.	.	4g\	.	.	.	.
.	.	.	.	4f\	.	.	.	.
.	.	.	.	4e\	.	.	.	.
=76	=76	=76	=76	=76	=76	=76	=76	=76
0r	.	0r	.	2d\	.	.	2b-\	-ri-
.	.	.	.	1g	.	.	2g/	.
.	.	.	.	.	.	.	1a	.
.	.	.	.	2f#i\	.	.	.	.
=77	=77	=77	=77	=77	=77	=77	=77	=77
1r	.	1r	.	0g	-a,	.	2.g/	.
.	.	.	.	.	.	.	4a/	.
1G	vir-	1d	vir-	.	.	.	4b-\	.
.	.	.	.	.	.	.	4cc\	.
.	.	.	.	.	.	.	[2dd\	.
=78	=78	=78	=78	=78	=78	=78	=78	=78
1B-	-go	1d	-go	2r	.	.	4dd\]	.
.	.	.	.	.	.	.	4cc\	.
.	.	.	.	2d\	vir-	.	4dd\	.
.	.	.	.	.	.	.	4b-\	.
1A	sem-	1c	sem-	2e\	-go	.	4cc\	.
.	.	.	.	.	.	.	4b-\	.
.	.	.	.	2f\	sem-	.	4cc\	.
.	.	.	.	.	.	.	4a/	.
=79	=79	=79	=79	=79	=79	=79	=79	=79
1G	-per	1B-	-per	1g	-per	.	4b-\	.
.	.	.	.	.	.	.	4a/	.
.	.	.	.	.	.	.	4b-\	.
.	.	.	.	.	.	.	4g/	.
1F	Ma-	1c	Ma-	2r	.	.	4a/	.
.	.	.	.	.	.	.	4g/	.
.	.	.	.	2A/	Ma-	.	4f/	.
.	.	.	.	.	.	.	4e/	.
=80	=80	=80	=80	=80	=80	=80	=80	=80
2G\	-ri-	2B-\	-ri-	2B-\	-ri-	.	2d/	.
2E\	.	2G/	.	2c\	.	.	1g	.
1D	.	1A	.	1d	.	.	.	.
.	.	.	.	.	.	.	2f#i/	.
=81	=81	=81	=81	=81	=81	=81	=81	=81
0G	-a,	[0G	-a,	0B-	-a,	.	[0g	-a,
=82	=82	=82	=82	=82	=82	=82	=82	=82
1r	.	0G]	.	1r	.	.	0g]	.
1G	de	.	.	1d	de	.	.	.
=83	=83	=83	=83	=83	=83	=83	=83	=83
1.d	cu-	0r	.	1.f	cu-	.	0r	.
2c\	-jus	.	.	2e\	-jus	.	.	.
=84	=84	=84	=84	=84	=84	=84	=84	=84
1B-	u-	0r	.	1d	u-	.	0r	.
1A	-te-	.	.	1c	-te-	.	.	.
=85	=85	=85	=85	=85	=85	=85	=85	=85
0B-	-ro	1r	.	1.B-	-ro	.	1r	.
.	.	1d	de	.	.	.	1dd	de
.	.	.	.	2c\	.	.	.	.
=86	=86	=86	=86	=86	=86	=86	=86	=86
0BB-	.	1.f	cu-	1d	.	.	1.dd	cu-
.	.	.	.	1B-	pro-	.	.	.
.	.	2e\	-jus	.	.	.	2cc\	-jus
=87	=87	=87	=87	=87	=87	=87	=87	=87
1r	.	1d	u-	1.f	-ces-	.	1b-	u-
1F	pro-	1c	-te-	.	.	.	1a	-te-
.	.	.	.	2e\	.	.	.	.
=88	=88	=88	=88	=88	=88	=88	=88	=88
1G	-ces-	1.B-	-ro	2d\	.	.	1b-	-ro
.	.	.	.	2B-\	.	.	.	.
1F	.	.	.	[1f	.	.	1cc	pro-
.	.	2A/	.	.	.	.	.	.
=89	=89	=89	=89	=89	=89	=89	=89	=89
2BB-/	.	1B-	.	2f\]	.	.	1dd	-ces-
2D\	.	.	.	2d\	.	.	.	.
1C	.	1c	pro-	1e	-sit	.	1g	-sit
=90	=90	=90	=90	=90	=90	=90	=90	=90
1BB-	-sit	1d	-ces-	2f\	sal-	.	1.b-	sal-
.	.	.	.	2.B-\	.	.	.	.
[1B-	sal-	1G	-sit	.	.	.	.	.
.	.	.	.	4c\	.	.	.	.
.	.	.	.	2d\	.	.	2a/	.
=91	=91	=91	=91	=91	=91	=91	=91	=91
2B-\]	.	1B-	sal-	2G/	.	.	1g	-va-
4A\	.	.	.	2d\	.	.	.	.
4G\	.	.	.	.	.	.	.	.
2A\	-va-	2A/	-va-	2c\	-va-	.	2f/	-tor
2G\	-tor	2B-\	-tor	2d\	-tor	.	[2g/	nos-
=92	=92	=92	=92	=92	=92	=92	=92	=92
2E-\	nos-	2c\	nos-	2e-i\	nos-	.	4g/]	.
.	.	.	.	.	.	.	4f/	.
2F\	.	2A/	.	1.c	.	.	1f	.
1C	.	1G	.	.	.	.	.	.
.	.	.	.	.	.	.	2e/	.
=93	=93	=93	=93	=93	=93	=93	=93	=93
0D	-ter	0F	ter	1A	ter	.	0f	-ter
.	.	.	.	1d	.	.	.	.
=94	=94	=94	=94	=94	=94	=94	=94	=94
1r	.	1r	.	1r	.	.	1r	.
[1E-	et	[1B-	et	[1G	et	.	[1g	et
=95	=95	=95	=95	=95	=95	=95	=95	=95
2E-\]	.	2B-\]	.	2G/]	.	.	2g/]	.
2E-i\	re-	2B-\	re-	2G/	re-	.	2g/	re-
2E-i\	-demp-	2B-\	-demp-	2G/	-demp-	.	2g/	-demp-
2E-i\	-ti-	2B-\	-ti-	2G/	-ti-	.	2g/	-ti-
=96	=96	=96	=96	=96	=96	=96	=96	=96
1E-i	-o-	1B-	-o	2.e-\	-o	.	1g	-o
.	.	.	.	4d\	.	.	.	.
2F\	mun-	2A/	mun-	2.c\	mun-	.	2f/	mun-
2C/	.	[2G/	.	.	.	.	[2e/	.
.	.	.	.	4B-\	.	.	.	.
=97	=97	=97	=97	=97	=97	=97	=97	=97
2D\	.	4G/]	.	2A/	.	.	4e/]	.
.	.	4F/	.	.	.	.	4d/	.
2BB-/	.	2D/	.	2G/	.	.	1d	.
1AA	-di,	1E	.	1A	-di,	.	.	.
.	.	.	.	.	.	.	2c#i/	.
=98	=98	=98	=98	=98	=98	=98	=98	=98
2r	.	[0D	-di,	2.F/	mun-	.	[0d	-di,
2D\	mun-	.	.	.	.	.	.	.
.	.	.	.	4G/	.	.	.	.
2.F\	.	.	.	2A/	.	.	.	.
.	.	.	.	2B-\	.	.	.	.
4G\	.	.	.	.	.	.	.	.
=99	=99	=99	=99	=99	=99	=99	=99	=99
2A\	.	0D_	.	2A/	.	.	0d_	.
2B-\	.	.	.	2.d\	.	.	.	.
2A\	.	.	.	.	.	.	.	.
.	.	.	.	4e\	.	.	.	.
[2d\	.	.	.	4f\	.	.	.	.
.	.	.	.	4g\	.	.	.	.
=100	=100	=100	=100	=100	=100	=100	=100	=100
2d\]	.	0D]	.	2a\	.	.	0d]	.
2B-\	.	.	.	1g	.	.	.	.
1A	-di,	.	.	.	.	.	.	.
.	.	.	.	2f#i\	.	.	.	.
=101	=101	=101	=101	=101	=101	=101	=101	=101
3%2GV	de-	0r	.	3%4gV	-di,	.	0r	.
3%2G	-pre-	.	.	.	.	.	.	.
3%2FZ	-ca-	.	.	3%2rZ	.	.	.	.
=102	=102	=102	=102	=102	=102	=102	=102	=102
3%2GV	-re	0r	.	3%2gV	de-	.	0r	.
3%2B-	fi-	.	.	3%2g	-pre-	.	.	.
3%2AZ	-li-	.	.	3%2fZ	-ca-	.	.	.
=103	=103	=103	=103	=103	=103	=103	=103	=103
3%4GV	-um	0r	.	3%2gV	-re	.	0r	.
.	.	.	.	3%2b-	fi-	.	.	.
3%2FZ	.	.	.	3%2aZ	-li-	.	.	.
=104	=104	=104	=104	=104	=104	=104	=104	=104
3%2GV	de-	3%2dV	de-	3%4gV	-um,	.	0r	.
3%2B-	-pre-	3%2d	-pre-	.	.	.	.	.
3%2AZ	-ca-	3%2cZ	-ca-	3%2fZ	fi-	.	.	.
=105	=105	=105	=105	=105	=105	=105	=105	=105
3%2GV	-re	3%2dV	-re	3%2gV	.	.	3%2ddV	de-
3%2D	fi-	3%2f	fi-	3%4aZ	-li-	.	3%2dd	-pre-
3%2AZ	-li-	3%2eZ	-li-	.	.	.	3%2ccZ	-ca-
=106	=106	=106	=106	=106	=106	=106	=106	=106
3%4DV	-um,	3%4dV	-um,	3%4fV	-um,	.	3%2ddV	-re
.	.	.	.	.	.	.	3%2ff	fi-
3%2rZ	.	3%2cZ	ut	3%2rZ	.	.	3%2eeZ	-li-
=107	=107	=107	=107	=107	=107	=107	=107	=107
0r	.	3%2dV	ex-	0r	.	.	3%4ddV	-um,
.	.	3%2f	-au-	.	.	.	.	.
.	.	3%2eZ	-di-	.	.	.	3%2ccZ	ut
=108	=108	=108	=108	=108	=108	=108	=108	=108
0r	.	3%4dV	-re	0r	.	.	3%2ddV	ex-
.	.	.	.	.	.	.	3%2ff	-au-
.	.	3%2cZ	di-	.	.	.	3%2eeZ	-di-
=109	=109	=109	=109	=109	=109	=109	=109	=109
0r	.	3%2.fV	.	0r	.	.	3%2.ddV	-re
.	.	3e\	.	.	.	.	3cc\	.
.	.	3%2dZ	.	.	.	.	3b-\	.
.	.	.	.	.	.	.	3a/Z	.
=110	=110	=110	=110	=110	=110	=110	=110	=110
0r	.	3%2cV	.	0r	.	.	3%4aV	di-
.	.	3%4B-Z	-gne-	.	.	.	.	.
.	.	.	.	.	.	.	3%2gZ	-gne-
=111	=111	=111	=111	=111	=111	=111	=111	=111
0r	.	0A	-tur	0r	.	.	0a	-tur
=112	=112	=112	=112	=112	=112	=112	=112	=112
1r	.	1r	.	1r	.	.	1r	.
[1BB-	de-	[1d	de-	[1f	de-	.	[1b-	de-
=113	=113	=113	=113	=113	=113	=113	=113	=113
2BB-/]	.	2d\]	.	2f\]	.	.	2b-\]	.
2BB-/	-pre-	2d\	-pre-	2f\	-pre-	.	2b-\	-pre-
2BB-/	-ca-	2d\	-ca-	2f\	-ca-	.	2b-\	-ca-
2BB-/	-ti-	2d\	-ti-	2f\	-ti-	.	2b-\	-ti-
=114	=114	=114	=114	=114	=114	=114	=114	=114
2.F\	-o-	1c	-o-	1f	-o-	.	2cc\	-o-
.	.	.	.	.	.	.	1a	.
4E\	.	.	.	.	.	.	.	.
1D	-nem	1d	-nem	1f	-nem	.	.	.
.	.	.	.	.	.	.	2b-\	-nem
=115	=115	=115	=115	=115	=115	=115	=115	=115
1C	nos-	1e-	nos-	2g\	nos-	.	4cc\	nos-
.	.	.	.	.	.	.	4b-\	.
.	.	.	.	2c\	.	.	4a/	.
.	.	.	.	.	.	.	4g/	.
2BB-/	.	2d\	.	2.f\	.	.	2b-\	.
[2F\	.	[2c\	.	.	.	.	[2a/	.
.	.	.	.	4e\	.	.	.	.
=116	=116	=116	=116	=116	=116	=116	=116	=116
2F\]	.	2c\]	.	2f\	.	.	4a/]	.
.	.	.	.	.	.	.	4g/	.
2G\	.	2B-\	.	2.d\	.	.	1g	.
1D	.	1A	.	.	.	.	.	.
.	.	.	.	4c\	.	.	.	.
.	.	.	.	2d\	.	.	2f/	.
=117	=117	=117	=117	=117	=117	=117	=117	=117
2E-\	-tram	2G/	-tram,	2B-\	-tram,	.	2g/	-tram,
2D\	nos-	2d\	nos-	2.f\	nos-	.	1a	nos-
2.F\	.	2c\	.	.	.	.	.	.
.	.	.	.	4e\	.	.	.	.
.	.	2d\	.	2f\	.	.	2b-\	.
4E-i\	.	.	.	.	.	.	.	.
=118	=118	=118	=118	=118	=118	=118	=118	=118
1C	.	1e-i	.	2g\	.	.	4cc\	.
.	.	.	.	.	.	.	4b-\	.
.	.	.	.	2c\	.	.	4a/	.
.	.	.	.	.	.	.	4g/	.
2BB-/	.	2d\	.	2.f\	.	.	2b-\	.
[2F\	.	[2c\	.	.	.	.	[2a/	.
.	.	.	.	4e\	.	.	.	.
=119	=119	=119	=119	=119	=119	=119	=119	=119
2F\]	.	4c\]	.	2f\	.	.	2a/]	.
.	.	4B-\	.	.	.	.	.	.
2G\	.	4A/	.	2.d\	.	.	1g	.
.	.	4G/	.	.	.	.	.	.
1D	.	1A	.	.	.	.	.	.
.	.	.	.	4c\	.	.	.	.
.	.	.	.	2d\	.	.	2f#i/	.
=120	=120	=120	=120	=120	=120	=120	=120	=120
[0Gl	-tram.	[0Gl	-tram.	2B-\	.	.	[0gl	-tram.
.	.	.	.	1e-i	.	.	.	.
.	.	.	.	2d\	.	.	.	.
=121	=121	=121	=121	=121	=121	=121	=121	=121
0G]	.	0G]	.	0dl	-tram.	.	0g]	.
!!LO:LB:i:g=z
=122||	=122||	=122||	=122||	=122||	=122||	=122||	=122||	=122||
*>C	*	*>C	*	*>C	*	*	*>C	*
!!section: Tertia pars: O intemerata virgo
!!!OMD: Tertia pars: O intemerata virgo
*M2/1	*	*M2/1	*	*M2/1	*	*	*M2/1	*
*met(C|)	*	*met(C|)	*	*met(C|)	*	*	*met(C|)	*
0r	.	0r	.	1.g	O	.	0r	.
.	.	.	.	2g\	in-	.	.	.
=123	=123	=123	=123	=123	=123	=123	=123	=123
0r	.	0r	.	1g	-te-	.	1.dd	O
.	.	.	.	1f	-me-	.	.	.
.	.	.	.	.	.	.	2dd\	in-
=124	=124	=124	=124	=124	=124	=124	=124	=124
0r	.	0r	.	1g	-ra-	.	1dd	-te-
.	.	.	.	1e	.	.	1cc	-me-
=125	=125	=125	=125	=125	=125	=125	=125	=125
0r	.	0r	.	1d	-ta	.	1dd	-ra-
.	.	.	.	2.d\	vir-	.	1b-	-ta
.	.	.	.	4e\	.	.	.	.
=126	=126	=126	=126	=126	=126	=126	=126	=126
0r	.	0r	.	4f\	.	.	2.a/	vir-
.	.	.	.	4g\	.	.	.	.
.	.	.	.	1f	.	.	.	.
.	.	.	.	.	.	.	4b-\	.
.	.	.	.	.	.	.	4cc\	.
.	.	.	.	.	.	.	4dd\	.
.	.	.	.	4e\	.	.	[2cc\	.
.	.	.	.	4d\	.	.	.	.
=127	=127	=127	=127	=127	=127	=127	=127	=127
0r	.	0r	.	2c\	.	.	4cc\]	.
.	.	.	.	.	.	.	4b-\	.
.	.	.	.	1g	.	.	4a/	.
.	.	.	.	.	.	.	4g/	.
.	.	.	.	.	.	.	1a	.
.	.	.	.	2f#i\	.	.	.	.
=128	=128	=128	=128	=128	=128	=128	=128	=128
1.G	O	0r	.	1g	-go,	.	0g	-go,
.	.	.	.	1G	vir-	.	.	.
2G\	in-	.	.	.	.	.	.	.
=129	=129	=129	=129	=129	=129	=129	=129	=129
1G	-te-	1.d	O	1B-	.	.	0r	.
1F	-me-	.	.	1A	.	.	.	.
.	.	2d\	in-	.	.	.	.	.
=130	=130	=130	=130	=130	=130	=130	=130	=130
1G	-ra-	1d	-te-	1B-	.	.	0r	.
1E	.	1c	-me-	1G	.	.	.	.
=131	=131	=131	=131	=131	=131	=131	=131	=131
1D	-ta	1d	-ra-	1A	-go,	.	0r	.
2.D\	vir-	1B-	-ta	1r	.	.	.	.
4E\	.	.	.	.	.	.	.	.
=132	=132	=132	=132	=132	=132	=132	=132	=132
4F\	.	2.A/	vir-	0r	.	.	0r	.
4G\	.	.	.	.	.	.	.	.
1F	.	.	.	.	.	.	.	.
.	.	4B-\	.	.	.	.	.	.
.	.	4c\	.	.	.	.	.	.
.	.	4d\	.	.	.	.	.	.
4E\	.	[2c\	.	.	.	.	.	.
4D\	.	.	.	.	.	.	.	.
=133	=133	=133	=133	=133	=133	=133	=133	=133
2C/	.	4c\]	.	0r	.	.	0r	.
.	.	4B-\	.	.	.	.	.	.
1G	.	4A/	.	.	.	.	.	.
.	.	4G/	.	.	.	.	.	.
.	.	1A	.	.	.	.	.	.
2F#i\	.	.	.	.	.	.	.	.
=134	=134	=134	=134	=134	=134	=134	=134	=134
0G	-go,	0G	-go,	1d	que	.	1r	.
.	.	.	.	1e	re-	.	1g	que
=135	=135	=135	=135	=135	=135	=135	=135	=135
1r	.	0r	.	1f	-dem-	.	1a	re-
1G	que	.	.	1g	-pto-	.	1b-	-dem-
=136	=136	=136	=136	=136	=136	=136	=136	=136
1A	re-	0r	.	2e\	-rem	.	1cc	-pto
.	.	.	.	2.f\	Is-	.	.	.
2F\	-dem-	.	.	.	.	.	2a/	-rem
.	.	.	.	4e\	.	.	.	.
[2G\	-pto-	.	.	4d\	.	.	[2b-\	Is-
.	.	.	.	4c\	.	.	.	.
=137	=137	=137	=137	=137	=137	=137	=137	=137
4G\]	.	1r	.	2B-\	.	.	4b-\]	.
4F\	-rem	.	.	.	.	.	4a/	.
2D\	Is-	.	.	1d	-ra-	.	4g/	.
.	.	.	.	.	.	.	4f/	.
1E	-ra-	1G	que	.	.	.	1g	-ra-
.	.	.	.	2c#i\	.	.	.	.
=138	=138	=138	=138	=138	=138	=138	=138	=138
0D	-el	1A	re-	1d	-el,	.	0f	-el
.	.	1B-	-demp-	1d	Is-	.	.	.
=139	=139	=139	=139	=139	=139	=139	=139	=139
0r	.	1c	-to	1e	.	.	0r	.
.	.	2A/	-rem	2f\	.	.	.	.
.	.	[2B-\	Is-	[2g\	.	.	.	.
=140	=140	=140	=140	=140	=140	=140	=140	=140
1r	.	4B-\]	.	2g\]	.	.	1r	.
.	.	4A/	.	.	.	.	.	.
.	.	4G/	.	1f	-ra-	.	.	.
.	.	4F/	.	.	.	.	.	.
1C	pe-	1G	-ra-	.	.	.	1g	pe-
.	.	.	.	2e\	.	.	.	.
=141	=141	=141	=141	=141	=141	=141	=141	=141
2.F\	.	0F	-el	0f	-el,	.	2.a/	.
4G\	.	.	.	.	.	.	4b-\	.
2A\	-pe-	.	.	.	.	.	2cc\	-pe-
[2B-\	-ri-	.	.	.	.	.	[2dd\	-ri-
=142	=142	=142	=142	=142	=142	=142	=142	=142
4B-\]	.	1r	.	1.d	Is-	.	4dd\]	.
4A\	.	.	.	.	.	.	4cc\	.
1G	.	.	.	.	.	.	4b-\	.
.	.	.	.	.	.	.	4a/	.
.	.	1G	pe-	.	.	.	2b-\	.
4F\	.	.	.	2e\	-ra-	.	4a/	.
4E\	.	.	.	.	.	.	4g/	.
=143	=143	=143	=143	=143	=143	=143	=143	=143
2D\	.	2.A/	.	0f	-el	.	2f/	.
2.F\	.	.	.	.	.	.	2.a/	.
.	.	4B-\	.	.	.	.	.	.
.	.	2c\	-pe-	.	.	.	.	.
4E\	.	.	.	.	.	.	4g/	.
4D\	.	[2d\	-ri-	.	.	.	[2b-\	.
4C/	.	.	.	.	.	.	.	.
=144	=144	=144	=144	=144	=144	=144	=144	=144
2BB-/	.	4d\]	.	2r	.	.	4b-\]	.
.	.	4c\	.	.	.	.	4a/	.
2F\	.	4B-\	.	2f\	pe-	.	1a	.
.	.	4A/	.	.	.	.	.	.
1G	.	1B-	.	2.d\	-pe-	.	.	.
.	.	.	.	.	.	.	2g/	.
.	.	.	.	4e\	.	.	.	.
=145	=145	=145	=145	=145	=145	=145	=145	=145
1D	-sti,	0A	-sti,	1.f	-ri-	.	0a	-sti,
[1F	pe-	.	.	.	.	.	.	.
.	.	.	.	4e\	.	.	.	.
.	.	.	.	4d\	.	.	.	.
=146	=146	=146	=146	=146	=146	=146	=146	=146
2F\]	.	1F	.	2c\	.	.	0r	.
4E\	-pe-	.	.	1d	.	.	.	.
4D\	.	.	.	.	.	.	.	.
1E	-ri-	1G	.	.	.	.	.	.
.	.	.	.	2c#i\	.	.	.	.
=147	=147	=147	=147	=147	=147	=147	=147	=147
0D	-sti,	0A	.	0d	-sti,	.	1r	.
.	.	.	.	.	.	.	1f	et
=148	=148	=148	=148	=148	=148	=148	=148	=148
0r	.	0r	.	1G	et	.	2g/	post
.	.	.	.	.	.	.	2b-\	.
.	.	.	.	[1d	post	.	2a/	.
.	.	.	.	.	.	.	[2b-\	par-
=149	=149	=149	=149	=149	=149	=149	=149	=149
0r	.	1r	.	2d\]	.	.	2b-\]	.
.	.	.	.	2e\	.	.	4a/	.
.	.	.	.	.	.	.	4g/	.
.	.	1F	et	1f	par-	.	1a	.
=150	=150	=150	=150	=150	=150	=150	=150	=150
2r	.	2G/	post	1B-	.	.	1g	-tum
2G\	et	2B-\	.	.	.	.	.	.
2F\	post	2A/	.	2c\	.	.	1r	.
2D\	.	[2B-\	par-	[2d\	.	.	.	.
=151	=151	=151	=151	=151	=151	=151	=151	=151
1E-i	par-	2B-\]	.	2d\]	.	.	2r	.
.	.	4A/	.	2c\	.	.	1g	vir-
.	.	4G/	.	.	.	.	.	.
1D	-tum	1A	.	1d	-tum	.	.	.
.	.	.	.	.	.	.	2f/	.
=152	=152	=152	=152	=152	=152	=152	=152	=152
0r	.	1G	-tum	2r	.	.	2g/	.
.	.	.	.	2.g\	vir-	.	2.b-\	.
.	.	1r	.	.	.	.	.	.
.	.	.	.	4f\	.	.	4a/	.
.	.	.	.	4e\	.	.	[2cc\	.
.	.	.	.	4d\	.	.	.	.
=153	=153	=153	=153	=153	=153	=153	=153	=153
0r	.	2r	.	2f\	.	.	4cc\]	.
.	.	.	.	.	.	.	4b-\	.
.	.	1G	vir-	2B-\	.	.	1b-	.
.	.	.	.	1c	.	.	.	.
.	.	2F/	.	.	.	.	2a/	.
=154	=154	=154	=154	=154	=154	=154	=154	=154
2r	.	2G/	.	1B-	-go	.	1b-	-go
1G	vir-	2.B-\	.	.	.	.	.	.
.	.	.	.	1r	.	.	1r	.
.	.	4A/	.	.	.	.	.	.
2E\	.	[2c\	.	.	.	.	.	.
=155	=155	=155	=155	=155	=155	=155	=155	=155
2F\	.	4c\]	.	0r	.	.	0r	.
.	.	4B-\	.	.	.	.	.	.
2D\	.	1B-	.	.	.	.	.	.
1C	.	.	.	.	.	.	.	.
.	.	2A/	.	.	.	.	.	.
=156	=156	=156	=156	=156	=156	=156	=156	=156
2BB-/	-go	1B-	-go	2.d\	per-	.	1r	.
1B-	per-	.	.	.	.	.	.	.
.	.	.	.	4e\	.	.	.	.
.	.	1d	per-	2f\	.	.	1b-	per-
4A\	-man-	.	.	2g\	.	.	.	.
4G\	.	.	.	.	.	.	.	.
=157	=157	=157	=157	=157	=157	=157	=157	=157
2A\	-si-	2c\	.	2e\	.	.	1a	.
2F\	.	2d\	.	2f\	.	.	.	.
1G	-sti,	2B-\	.	2d\	.	.	1b-	-man-
.	.	2d\	-man-	2g\	-man-	.	.	.
=158	=158	=158	=158	=158	=158	=158	=158	=158
2r	.	2c\	-si-	2e\	-si-	.	2.cc\	-si-
2D\	per-	2d\	.	2.f\	.	.	.	.
.	.	.	.	.	.	.	4b-\	.
2.F\	.	2A/	.	.	.	.	4a/	.
.	.	.	.	4e\	.	.	4g/	.
.	.	[2c\	.	4c\	.	.	[2a/	.
4E\	.	.	.	4d\	.	.	.	.
=159	=159	=159	=159	=159	=159	=159	=159	=159
2C/	.	4c\]	.	2e\	.	.	2a/]	.
.	.	4B-\	.	.	.	.	.	.
2E\	-man-	2G/	.	2c\	.	.	1g	.
1D	-si-	1A	.	1d	-sti.	.	.	.
.	.	.	.	.	.	.	2f#i/	.
=160	=160	=160	=160	=160	=160	=160	=160	=160
0G	-sti	0G	-sti.	1.B-	De-	.	1g	-sti.
.	.	.	.	.	.	.	1r	.
.	.	.	.	4A/	.	.	.	.
.	.	.	.	4G/	.	.	.	.
=161	=161	=161	=161	=161	=161	=161	=161	=161
0r	.	0r	.	1A	.	.	1f	De-
.	.	.	.	1G	-i	.	1g	.
=162	=162	=162	=162	=162	=162	=162	=162	=162
0r	.	1.B-	De-	0r	.	.	1g	-i
.	.	.	.	.	.	.	1r	.
.	.	4A/	.	.	.	.	.	.
.	.	4G/	.	.	.	.	.	.
=163	=163	=163	=163	=163	=163	=163	=163	=163
0r	.	1A	.	1r	.	.	1f	ge-
.	.	1G	-i	2r	.	.	[1g	.
.	.	.	.	[2g\	ge-	.	.	.
=164	=164	=164	=164	=164	=164	=164	=164	=164
0r	.	0r	.	2g\]	.	.	2g/]	.
.	.	.	.	2f\	.	.	2a/	.
.	.	.	.	2d\	.	.	2b-\	.
.	.	.	.	[2e-\	.	.	[2cc\	.
=165	=165	=165	=165	=165	=165	=165	=165	=165
0r	.	1r	.	4e-\]	.	.	4cc\]	.
.	.	.	.	4d\	.	.	4b-\	.
.	.	.	.	4c\	.	.	1b-	.
.	.	.	.	4B-\	.	.	.	.
.	.	1F	ge-	1c	.	.	.	.
.	.	.	.	.	.	.	2a/	-ni-
=166	=166	=166	=166	=166	=166	=166	=166	=166
2r	.	2.G/	.	2.B-\	.	.	1b-	-trix,
1G	De-	.	.	.	.	.	.	.
.	.	4A/	.	4A/	.	.	.	.
.	.	2B-\	.	4G/	.	.	1r	.
.	.	.	.	4F/	.	.	.	.
2E\	-i	[2c\	.	2G/	.	.	.	.
=167	=167	=167	=167	=167	=167	=167	=167	=167
2F\	ge-	4c\]	.	2A/	.	.	0r	.
.	.	4B-\	.	.	.	.	.	.
2D\	.	1B-	.	1F	.	.	.	.
1C	-ni-	.	.	.	.	.	.	.
.	.	2A/	-ni-	2E/	-ni-	.	.	.
=168	=168	=168	=168	=168	=168	=168	=168	=168
0BB-	-trix,	0B-	-trix,	2F/	-trix,	.	1r	.
.	.	.	.	2.B-\	in	.	.	.
.	.	.	.	.	.	.	1b-	in-
.	.	.	.	4c\	.	.	.	.
.	.	.	.	4d\	.	.	.	.
.	.	.	.	4e\	.	.	.	.
=169	=169	=169	=169	=169	=169	=169	=169	=169
0r	.	0r	.	2.f\	.	.	2a/	.
.	.	.	.	.	.	.	2cc\	.
.	.	.	.	4e\	.	.	.	.
.	.	.	.	2d\	.	.	2b-\	-ter-
.	.	.	.	2c\	-ter-	.	[2a/	-ce-
=170	=170	=170	=170	=170	=170	=170	=170	=170
0r	.	1r	.	2d\	-ce-	.	2a/]	.
.	.	.	.	2A/	-de	.	4g/	.
.	.	.	.	.	.	.	4f/	.
.	.	1B-	in-	1r	.	.	1g	.
=171	=171	=171	=171	=171	=171	=171	=171	=171
2.F\	in-	2A/	.	0r	.	.	1a	-de
.	.	2c\	.	.	.	.	.	.
4E\	.	.	.	.	.	.	.	.
2D\	.	2B-\	-ter-	.	.	.	1r	.
2C/	-ter-	[2A/	-ce-	.	.	.	.	.
=172	=172	=172	=172	=172	=172	=172	=172	=172
2D\	-ce-	2A/]	.	0r	.	.	0r	.
2AA/	.	4G/	.	.	.	.	.	.
.	.	4F/	.	.	.	.	.	.
1BB-	.	1G	.	.	.	.	.	.
=173	=173	=173	=173	=173	=173	=173	=173	=173
1AA	-de	0A	-de	1c	pro	.	1r	.
1D	pro	.	.	1d	.	.	1f	pro
=174	=174	=174	=174	=174	=174	=174	=174	=174
1C	no-	0r	.	2e\	no-	.	1g	no-
.	.	.	.	2c\	.	.	.	.
1G	.	.	.	2.d\	.	.	1b-	.
.	.	.	.	4e\	.	.	.	.
=175	=175	=175	=175	=175	=175	=175	=175	=175
1F	.	1r	.	1f	-bis,	.	2a/	.
.	.	.	.	.	.	.	2.cc\	.
1c	.	1F	pro	1f	pro	.	.	.
.	.	.	.	.	.	.	4b-\	.
.	.	.	.	.	.	.	2a/	.
=176	=176	=176	=176	=176	=176	=176	=176	=176
1B-	.	1G	no-	1d	no-	.	2g/	.
.	.	.	.	.	.	.	2.b-\	.
1G	.	1B-	.	1g	.	.	.	.
.	.	.	.	.	.	.	4cc\	.
.	.	.	.	.	.	.	2dd\	.
=177	=177	=177	=177	=177	=177	=177	=177	=177
1A	.	2A/	.	1e	.	.	2cc\	.
.	.	2.c\	.	.	.	.	2.a/	.
1F	.	.	.	1f	.	.	.	.
.	.	4B-\	.	.	.	.	4b-\	.
.	.	2A/	.	.	.	.	2cc\	.
=178	=178	=178	=178	=178	=178	=178	=178	=178
1G	-bis,	2G/	.	2.d\	.	.	2b-\	.
.	.	2.B-\	.	.	.	.	2.dd\	.
.	.	.	.	4e\	.	.	.	.
2r	.	.	.	2f\	.	.	.	.
.	.	4c\	.	.	.	.	4cc\	.
2G\	pro	2d\	.	2g\	.	.	[2b-\	.
=179	=179	=179	=179	=179	=179	=179	=179	=179
4A\	no-	2c\	.	2e\	.	.	4b-\]	.
4G\	.	.	.	.	.	.	4a/	.
4F\	.	2.A/	.	2f\	.	.	2.cc\	.
4E\	.	.	.	.	.	.	.	.
[1F	.	.	.	2c\	.	.	.	.
.	.	4B-\	.	.	.	.	4b-\	.
.	.	[2c\	.	[2f\	.	.	4a/	.
.	.	.	.	.	.	.	4g/	.
=180	=180	=180	=180	=180	=180	=180	=180	=180
2F\]	.	4c\]	.	4f\]	.	.	2a/	.
.	.	4B-\	.	4e\	.	.	.	.
2G\	.	4A/	.	4d\	.	.	1g	.
.	.	4G/	.	4c\	.	.	.	.
1D	.	1A	.	1d	.	.	.	.
.	.	.	.	.	.	.	2f#i/	.
=181	=181	=181	=181	=181	=181	=181	=181	=181
[0G	-bis,	0G	-bis,	1B-	-bis,	.	1g	-bis,
.	.	.	.	1G	.	.	1r	.
=182	=182	=182	=182	=182	=182	=182	=182	=182
0G]	.	0r	.	3%4gV	et	.	3%4b-V	et
.	.	.	.	3%2gZ	ne	.	3%2b-Z	ne
=183	=183	=183	=183	=183	=183	=183	=183	=183
0r	.	0r	.	3%2fV	de-	.	3%2aV	de-
.	.	.	.	3%2g	-spi-	.	3%2b-	-spi-
.	.	.	.	3%2eZ	-ci-	.	3%2ccZ	-ci-
=184	=184	=184	=184	=184	=184	=184	=184	=184
0r	.	0r	.	3%4dV	-as	.	3%4ddV	-as
.	.	.	.	3%2eZ	pre-	.	3%2ccZ	pre-
=185	=185	=185	=185	=185	=185	=185	=185	=185
0r	.	0r	.	3%2gV	-ces	.	3%2b-V	-ces
.	.	.	.	3%2.f#i	no-	.	3%4aZ	no-
.	.	.	.	3e\Z	.	.	.	.
=186	=186	=186	=186	=186	=186	=186	=186	=186
!! Cannot start and stop tuplet in muse2ps [20111017], so placing a
!! italic three above the note to indicate that it is triplet
!	!	!	!	!LO:TX:Z=15:i:t=3	!	!	!LO:TX:Z=-20:i:t=3	!
3%4GV	et	3%4B-V	et	3%4.g	-stras.	.	3%4.g	-stras
3%2GZ	ne	3%2B-Z	ne	.	.	.	.	.
=187	=187	=187	=187	=187	=187	=187	=187	=187
3%2FV	de-	3%2AV	de-	0r	.	.	0r	.
3%2G	-spi-	3%2B-	-spi-	.	.	.	.	.
3%2EZ	-ci-	3%2cZ	-ci-	.	.	.	.	.
=188	=188	=188	=188	=188	=188	=188	=188	=188
3%4DV	-as	3%4dV	-as	0r	.	.	0r	.
3%2EZ	pre-	3%2cZ	pre-	.	.	.	.	.
=189	=189	=189	=189	=189	=189	=189	=189	=189
3%2GV	-ces	3%2B-V	-ces	0r	.	.	0r	.
3%2.F#i	no-	3%4AZ	-no-	.	.	.	.	.
3E\Z	.	.	.	.	.	.	.	.
=190	=190	=190	=190	=190	=190	=190	=190	=190
!! Cannot start and stop tuplet in muse2ps [20111017], so placing a
!! italic three above the note to indicate that it is triplet
!LO:TX:Z=5:i:t=3	!	!LO:TX:Z=-10:i:t=3	!	!	!	!	!	!
3%4.G	-stras.	3%4.G	-stras.	0r	.	.	3%4b-V	qui-
.	.	.	.	.	.	.	3%2ccZ	-a
=191	=191	=191	=191	=191	=191	=191	=191	=191
0r	.	0r	.	3%4B-V	qui-	.	3%4ddV	o-
.	.	.	.	3%2cZ	-a	.	3%2ee-iZ	-re
=192	=192	=192	=192	=192	=192	=192	=192	=192
0r	.	0r	.	3%4dV	o-	.	3%2ddV	in-
.	.	.	.	.	.	.	3%2b-	.
.	.	.	.	3%2eZ	-re	.	3%2ccZ	-di-
=193	=193	=193	=193	=193	=193	=193	=193	=193
0r	.	3%4B-V	qui-	3%2fV	in-	.	3%4ddV	-gno
.	.	.	.	3%2g	.	.	.	.
.	.	3%2cZ	-a	3%2eZ	-di-	.	3%2rZ	.
=194	=194	=194	=194	=194	=194	=194	=194	=194
3%4BB-V	qui-	3%4dV	o-	3%4dV	-gno	.	0r	.
3%2CZ	-a	3%2e-iZ	-re	3%2cZ	no-	.	.	.
=195	=195	=195	=195	=195	=195	=195	=195	=195
3%4DV	o-	3%2dV	in-	3%2AV	.	.	0r	.
.	.	3%2B-	.	3%2B-	.	.	.	.
3%2E-iZ	-re	3%2cZ	-di-	3%2GZ	.	.	.	.
=196	=196	=196	=196	=196	=196	=196	=196	=196
3%2DV	in-	3%4dV	-gno	3%2AV	.	.	3%4ddV	no-
3%2BB-	.	.	.	3%2B-	.	.	.	.
3%2CZ	-di-	3%2rZ	.	3%2GZ	-men	.	3%2eeZ	-men
=197	=197	=197	=197	=197	=197	=197	=197	=197
3%4DV	-gno	0r	.	3%2FV	sanc-	.	3%4ffV	sanc-
.	.	.	.	3%2B-	.	.	.	.
3%2rZ	.	.	.	3%2cZ	-tum	.	3%2eeZ	-tum
=198	=198	=198	=198	=198	=198	=198	=198	=198
3%4DV	no-	3%4dV	no-	3%2dV	tu-	.	3%2.ddV	tu-
.	.	.	.	3%2A	.	.	.	.
.	.	.	.	.	.	.	3cc\	.
3%2GZ	-men	3%2eZ	-men	3%2B-Z	.	.	3%2b-Z	.
=199	=199	=199	=199	=199	=199	=199	=199	=199
3%2FV	-sanc-	3%4fV	sanc-	3%2cV	um	.	3%4aV	-um
3%2D	.	.	.	3%2d	.	.	.	.
3%2AZ	-tum	3%2eZ	-tum	3%2AZ	in	.	3%2ccZ	in
=200	=200	=200	=200	=200	=200	=200	=200	=200
3%2B-V	tu-	3%2.dV	tu-	3%2.fV	vo-	.	3%2b-V	vo-
3%2F	.	.	.	.	.	.	3%2a	.
.	.	3c\	.	3e\	.	.	.	.
3%2GZ	.	3%2B-Z	.	3%2dZ	-ca	.	3%2b-Z	-ca-
=201	=201	=201	=201	=201	=201	=201	=201	=201
3%2AV	-um	3%4AV	-um	3%2cV	.	.	3%2ccV	.
3%4FZ	in	.	.	3%4fZ	.	.	3%4aZ	.
.	.	3%2cZ	in	.	.	.	.	.
=202	=202	=202	=202	=202	=202	=202	=202	=202
3%2GV	vo-	3%2B-V	vo-	3%2eV	.	.	3%2gV	.
3%2F	.	3%2A	.	3%2f	.	.	3%2.a	.
3%2GZ	-ca-	3%2B-Z	-ca-	3%2dZ	.	.	.	.
.	.	.	.	.	.	.	3g/Z	.
=203	=203	=203	=203	=203	=203	=203	=203	=203
3%2CV	.	3%2cV	.	3%2e-iV	.	.	3%4gV\	.
3%4DZ	vi-	3%4AZ	-vi-	3%4dZ	-vi-	.	.	.
.	.	.	.	.	.	.	3%2f#iZ\	-vi-
=204	=204	=204	=204	=204	=204	=204	=204	=204
1.d	-mus.	[0G	-mus.	1B-	-mus.	.	0g	-mus.
.	.	.	.	1G	.	.	.	.
[2B-\	.	.	.	.	.	.	.	.
=205	=205	=205	=205	=205	=205	=205	=205	=205
4B-\]	.	0G]	.	2r	.	.	0r	.
4A\	.	.	.	.	.	.	.	.
1G	.	.	.	2d\	O	.	.	.
.	.	.	.	2d\	glo-	.	.	.
4F\	.	.	.	2e\	-ri-	.	.	.
4E\	.	.	.	.	.	.	.	.
=206	=206	=206	=206	=206	=206	=206	=206	=206
1D	.	0r	.	2.f\	-o-	.	2r	.
.	.	.	.	.	.	.	2dd\	O
.	.	.	.	4e\	-sa	.	.	.
1r	.	.	.	2d\	do-	.	2dd\	glo-
.	.	.	.	2c\	-mi-	.	2ee\	-ri-
=207	=207	=207	=207	=207	=207	=207	=207	=207
0r	.	2r	.	1d	-na,	.	2.ff\	-o-
.	.	2d\	O	.	.	.	.	.
.	.	.	.	.	.	.	4ee\	-sa
.	.	2d\	glo-	1r	.	.	2dd\	do-
.	.	2e\	-ri-	.	.	.	2cc\	-mi-
=208	=208	=208	=208	=208	=208	=208	=208	=208
2r	.	2.f\	-o-	0r	.	.	1dd	-na,
2D\	O	.	.	.	.	.	.	.
.	.	4e\	-sa	.	.	.	.	.
2D\	glo-	2d\	do-	.	.	.	1r	.
2E\	-ri-	2c\	-mi-	.	.	.	.	.
=209	=209	=209	=209	=209	=209	=209	=209	=209
2.F\	-o-	1d	-na,	2r	.	.	0r	.
.	.	.	.	2A/	pro	.	.	.
4E\	-sa	.	.	.	.	.	.	.
2D\	do-	1r	.	2B-\	no-	.	.	.
2C/	-mi-	.	.	2c\	.	.	.	.
=210	=210	=210	=210	=210	=210	=210	=210	=210
1D	-na,	1r	.	2A/	.	.	2r	.
.	.	.	.	2.d\	.	.	2dd\	pro-
[1G	pro	2r	.	.	.	.	2.dd\	no-
.	.	.	.	4c\	.	.	.	.
.	.	2d\	pro	4B-\	.	.	.	.
.	.	.	.	4A/	.	.	4cc\	.
=211	=211	=211	=211	=211	=211	=211	=211	=211
2G\]	.	2.d\	no-	2G/	-bis,	.	2b-\	.
2D\	.	.	.	2.d\	pro	.	2a/	.
.	.	4c\	.	.	.	.	.	.
2G\	no-	2B-\	.	.	.	.	2g/	-bis,
.	.	.	.	4e\	.	.	.	.
2F\	.	2A/	.	2f\	.	.	2cc\	pro
=212	=212	=212	=212	=212	=212	=212	=212	=212
2G\	-bis,	2G/	-bis,	2d\	no-	.	2b-\	no-
2F\	pro-	2c\	pro	2f\	.	.	2a/	.
2G\	no-	2B-\	no-	2e\	-bis	.	2g/	-bis
2F\	-bis	2A/	.	2f\	sem-	.	2cc\	sem-
=213	=213	=213	=213	=213	=213	=213	=213	=213
2G\	sem-	2G/	-bis	2d\	.	.	2b-\	-per
2C/	-per	2c\	sem-	2e\	.	.	2.g/	Chri-
2.G\	Chri-	2B-\	-per	1d	-per	.	.	.
.	.	.	.	.	.	.	4a/	.
.	.	[2G/	Chri-	.	.	.	4b-\	.
4A\	.	.	.	.	.	.	4cc\	.
=214	=214	=214	=214	=214	=214	=214	=214	=214
4B-\	.	4G/]	.	2.G/	Chri-	.	2dd\	.
4c\	.	4A/	.	.	.	.	.	.
2d\	.	4B-\	.	.	.	.	2g/	-stum
.	.	4c\	.	4A/	.	.	.	.
2G\	-stum	2d\	.	4B-\	.	.	2r	.
.	.	.	.	4c\	.	.	.	.
[2B-\	ex-	2G/	-stum	2d\	.	.	[2dd\	ex-
=215	=215	=215	=215	=215	=215	=215	=215	=215
4B-\]	.	2r	.	2G/	-stum	.	4dd\]	.
4A\	.	.	.	.	.	.	4cc\	.
4G\	.	1d	ex-	1g	ex-	.	4b-\	.
4F\	.	.	.	.	.	.	4a/	.
2G\	.	.	.	.	.	.	2b-\	.
2A\	.	[2c\	-o-	2e\	.	.	4cc\	-o-
.	.	.	.	.	.	.	4b-\	.
=216	=216	=216	=216	=216	=216	=216	=216	=216
2F\	-o-	2c\]	.	2f\	-o-	.	4a/	.
.	.	.	.	.	.	.	4g/	.
2G\	.	2B-\	.	2.d\	.	.	1g	.
1D	.	1A	.	.	.	.	.	.
.	.	.	.	4c\	.	.	.	.
.	.	.	.	2A	.	.	2f#i	.
=217	=217	=217	=217	=217	=217	=217	=217	=217
0Gl	-ra.	0Gl	-ra.	0B-/l	-ra.	.	0gl	-ra.
!!LO:LB:i:g=z
=218||	=218||	=218||	=218||	=218||	=218||	=218||	=218||	=218||
*>D	*	*>D	*	*>D	*	*	*>D	*
!!section: Quarta pars: O Maria
!!!OMD: Quarta pars: O Maria
*M2/1	*	*M2/1	*	*M2/1	*	*	*M2/1	*
*met(C|)	*	*met(C|)	*	*met(C|)	*	*	*met(C|)	*
0G	O	0r	.	0g	O	.	0r	.
=219	=219	=219	=219	=219	=219	=219	=219	=219
1A	Ma-	0r	.	1f	Ma-	.	0r	.
1B-	-ri-	.	.	1g	-ri-	.	.	.
=220	=220	=220	=220	=220	=220	=220	=220	=220
0G	-a,	0d	O	0g	-a,	.	0dd	O
=221	=221	=221	=221	=221	=221	=221	=221	=221
0r	.	1e	Ma-	0r	.	.	1cc	Ma-
.	.	1f	-ri-	.	.	.	1dd	-ri-
=222	=222	=222	=222	=222	=222	=222	=222	=222
1r	.	[0d	-a,	0r	.	.	0dd	-a,
1G	nul-	.	.	.	.	.	.	.
=223	=223	=223	=223	=223	=223	=223	=223	=223
1G	-lam	0d]	.	1r	.	.	0r	.
1G	tam	.	.	1d	nul-	.	.	.
=224	=224	=224	=224	=224	=224	=224	=224	=224
1.B-	gra-	0r	.	1d	-lam	.	1r	.
.	.	.	.	1d	tam	.	1dd	nul-
2c\	.	.	.	.	.	.	.	.
=225	=225	=225	=225	=225	=225	=225	=225	=225
1d	.	1r	.	1.f	gra-	.	1dd	-lam
1D	-vem	1d	nul-	.	.	.	1dd	tam
.	.	.	.	2g\	.	.	.	.
=226	=226	=226	=226	=226	=226	=226	=226	=226
1r	.	1d	-lam	1a	.	.	1.ff	gra-
[1D	pos-	1d	tam	[1d	-vem	.	.	.
.	.	.	.	.	.	.	2ee\	.
=227	=227	=227	=227	=227	=227	=227	=227	=227
2D\]	.	1.f	gra-	2d\]	.	.	1dd	.
2E\	.	.	.	4c\	.	.	.	.
.	.	.	.	4B-\	.	.	.	.
1F	.	.	.	1A	.	.	1cc	-vem
.	.	2e\	.	.	.	.	.	.
=228	=228	=228	=228	=228	=228	=228	=228	=228
1BB-	-su-	1d	.	2B-\	pos-	.	1b-	pos-
.	.	.	.	2.f\	.	.	.	.
1F	-mus	1c	-vem	.	.	.	1a	-su-
.	.	.	.	4g\	-su-	.	.	.
.	.	.	.	2a\	-mus	.	.	.
=229	=229	=229	=229	=229	=229	=229	=229	=229
2r	.	1B-	pos-	2d\	ha-	.	1g	-mus
2G\	ha-	.	.	2.g\	.	.	.	.
2A\	-be-	1A	-su-	.	.	.	[1cc	ha-
.	.	.	.	4c\	.	.	.	.
2F\	-re	.	.	[2f\	.	.	.	.
=230	=230	=230	=230	=230	=230	=230	=230	=230
1G	cul-	1G	-mus	4f\]	.	.	2cc\]	.
.	.	.	.	4d\	.	.	.	.
.	.	.	.	2e\	-be-	.	2b-\	.
1F	-pam,	[1c	ha-	1f	-re	.	1a	-be-
=231	=231	=231	=231	=231	=231	=231	=231	=231
2r	.	2c\]	.	1g	cul-	.	1g	-re
2G\	ha-	2B-\	.	.	.	.	.	.
2A\	-be-	1A	-be-	2c\	.	.	[1cc	cul-
2F\	-re	.	.	[2f\	.	.	.	.
=232	=232	=232	=232	=232	=232	=232	=232	=232
1G	cul-	1G	-re	2f\]	.	.	2cc\]	.
.	.	.	.	2e\	.	.	2b-\	.
1F	.	[1c	cul-	1f	-pam,	.	2cc\	.
.	.	.	.	.	.	.	2a/	.
=233	=233	=233	=233	=233	=233	=233	=233	=233
1G	-pam,	2c\]	.	2r	.	.	2g/	.
.	.	2B-\	.	2d\	ha-	.	2b-\	.
2r	.	1c	.	1e	-be-	.	2a/	.
2C/	ha-	.	.	.	.	.	[2g/	.
=234	=234	=234	=234	=234	=234	=234	=234	=234
2D\	-be-	2A/	.	1d	-re	.	4g/]	.
.	.	.	.	.	.	.	4f/	.
2BB-/	-re	2B-\	.	.	.	.	1f	.
1C	cul-	1G	.	1c	cul-	.	.	.
.	.	.	.	.	.	.	2e/	.
=235	=235	=235	=235	=235	=235	=235	=235	=235
0D	-pam	0F	-pam	1A	-pam	.	[0f	-pam
.	.	.	.	[1d	pro	.	.	.
=236	=236	=236	=236	=236	=236	=236	=236	=236
1.BB-	pro	1.B-	pro	2d\]	.	.	0f]	.
.	.	.	.	2e\	qua	.	.	.
.	.	.	.	[1f	a-	.	.	.
2C/	qua	2B-\	qua	.	.	.	.	.
=237	=237	=237	=237	=237	=237	=237	=237	=237
2D\	a-	1B-	a-	2f\]	.	.	0r	.
2E\	.	.	.	4e\	.	.	.	.
.	.	.	.	4d\	.	.	.	.
1F	-pud	1A	-pud	2c\	-pud	.	.	.
.	.	.	.	4B-\	fi-	.	.	.
.	.	.	.	4A/	.	.	.	.
=238	=238	=238	=238	=238	=238	=238	=238	=238
2G\	fi-	1B-	fi-	1G	-li-	.	0r	.
1B-	.	.	.	.	.	.	.	.
.	.	1c	-li-	1F	-um,	.	.	.
2A\	-li-	.	.	.	.	.	.	.
=239	=239	=239	=239	=239	=239	=239	=239	=239
0B-	-um,	0d	-um,	1.f	pro	.	1.b-	pro
.	.	.	.	2f\	qua	.	2b-\	qua
=240	=240	=240	=240	=240	=240	=240	=240	=240
0r	.	1B-	a-	1f	a-	.	1b-	a-
.	.	1c	-pud	1e	-pud	.	1a	-pud
=241	=241	=241	=241	=241	=241	=241	=241	=241
0r	.	1d	fi-	1f	fi-	.	1b-	fi-
.	.	1e	-li-	1g	-li-	.	1cc	-li-
=242	=242	=242	=242	=242	=242	=242	=242	=242
0r	.	2f\	-um	1.a	um	.	1.dd	-um
.	.	1d	.	.	.	.	.	.
.	.	[2g\	tu-	[2b-\	tu-	.	[2ee-i\	tu-
=243	=243	=243	=243	=243	=243	=243	=243	=243
0r	.	4g\]	.	4b-\]	.	.	4ee-\]	.
.	.	4f\	.	4a\	.	.	4dd\	.
.	.	2d\	.	1a	.	.	1dd	.
.	.	1e-i	.	.	.	.	.	.
.	.	.	.	2g\	.	.	2cc\	.
=244	=244	=244	=244	=244	=244	=244	=244	=244
0r	.	1.d	-um	2.a\	-um	.	0dd	-um
.	.	.	.	4g\	.	.	.	.
.	.	.	.	4f\	.	.	.	.
.	.	.	.	4e\	.	.	.	.
.	.	[2f\	non	2d\	.	.	.	.
=245	=245	=245	=245	=245	=245	=245	=245	=245
2r	.	4f\]	.	0r	.	.	0r	.
.	.	4e\	.	.	.	.	.	.
2D\	non	2d\	.	.	.	.	.	.
2E\	.	2c\	.	.	.	.	.	.
[2F\	pos-	[2d\	pos-	.	.	.	.	.
=246	=246	=246	=246	=246	=246	=246	=246	=246
4F\]	.	4d\]	.	0r	.	.	0r	.
4E\	.	4c\	.	.	.	.	.	.
2D\	.	1B-	.	.	.	.	.	.
1C	.	.	.	.	.	.	.	.
.	.	2A/	.	.	.	.	.	.
=247	=247	=247	=247	=247	=247	=247	=247	=247
1BB-	-sis	1B-	-sis	0r	.	.	2r	.
.	.	.	.	.	.	.	2dd\	non
1r	.	1r	.	.	.	.	2ee\	.
.	.	.	.	.	.	.	[2ff\	pos-
=248	=248	=248	=248	=248	=248	=248	=248	=248
0r	.	0r	.	2r	.	.	4ff\]	.
.	.	.	.	.	.	.	4ee\	.
.	.	.	.	2d\	non	.	2dd\	.
.	.	.	.	2e\	.	.	2cc\	.
.	.	.	.	[2f\	pos-	.	[2dd\	.
=249	=249	=249	=249	=249	=249	=249	=249	=249
0r	.	0r	.	4f\]	.	.	4dd\]	.
.	.	.	.	4e\	.	.	4cc\	.
.	.	.	.	2d\	.	.	1b-	.
.	.	.	.	1c	.	.	.	.
.	.	.	.	.	.	.	2a/	.
=250	=250	=250	=250	=250	=250	=250	=250	=250
0r	.	2r	.	1B-	-sis	.	1b-	-sis
.	.	2B-\	im-	.	.	.	.	.
.	.	2c\	-pe-	1r	.	.	1r	.
.	.	[2d\	-tra-	.	.	.	.	.
=251	=251	=251	=251	=251	=251	=251	=251	=251
2r	.	4d\]	.	0r	.	.	0r	.
.	.	4c\	.	.	.	.	.	.
2B-\	im-	2B-\	.	.	.	.	.	.
2c\	-pe-	2A/	.	.	.	.	.	.
[2d\	-tra	[2B-\	.	.	.	.	.	.
=252	=252	=252	=252	=252	=252	=252	=252	=252
4d\]	.	4B-\]	.	0r	.	.	0r	.
4c\	.	4A/	.	.	.	.	.	.
2B-\	.	1G	.	.	.	.	.	.
1A	.	.	.	.	.	.	.	.
.	.	2F#i/	.	.	.	.	.	.
=253	=253	=253	=253	=253	=253	=253	=253	=253
1G	-re	1G	-re	0r	.	.	2r	.
.	.	.	.	.	.	.	2b-\	im-
2A\	ve-	1r	.	.	.	.	2cc\	-pe-
[2B-\	.	.	.	.	.	.	[2dd\	-tra-
=254	=254	=254	=254	=254	=254	=254	=254	=254
2B-\]	.	0r	.	2r	.	.	4dd\]	.
.	.	.	.	.	.	.	4cc\	.
4A\	.	.	.	2B-\	im-	.	2b-\	.
4G\	.	.	.	.	.	.	.	.
2A\	.	.	.	2c\	-pe-	.	2a/	.
[2G\	.	.	.	[2d\	-tra-	.	[2b-\	.
=255	=255	=255	=255	=255	=255	=255	=255	=255
2G\]	.	0r	.	4d\]	.	.	4b-\]	.
.	.	.	.	4c\	.	.	4a/	.
2G\	-ni-	.	.	2B-\	.	.	1g	.
1D	-am.	.	.	1A	.	.	.	.
.	.	.	.	.	.	.	2f/	.
=256	=256	=256	=256	=256	=256	=256	=256	=256
0r	.	2r	.	1G	-re	.	4g/	-re
.	.	.	.	.	.	.	4a/	.
.	.	2g\	ve-	.	.	.	4b-\	.
.	.	.	.	.	.	.	4cc\	.
.	.	2f\	.	1r	.	.	2dd\	.
.	.	[2g\	.	.	.	.	[2ee-i\	ve-
=257	=257	=257	=257	=257	=257	=257	=257	=257
0r	.	4g\]	.	1r	.	.	4ee-\]	.
.	.	4f\	.	.	.	.	4dd\	.
.	.	2d\	.	.	.	.	1dd	.
.	.	1e-i	-ni-	1g	Ni-	.	.	.
.	.	.	.	.	.	.	2cc\	-ni-
=258	=258	=258	=258	=258	=258	=258	=258	=258
2r	.	1d	-am.	2.f\	-hil	.	1dd	-am.
1d	Ni-	.	.	.	.	.	.	.
.	.	.	.	8g\L	.	.	.	.
.	.	.	.	8a\J	.	.	.	.
.	.	1r	.	2b-\	.	.	1r	.
2c\	.	.	.	[2a\	.	.	.	.
=259	=259	=259	=259	=259	=259	=259	=259	=259
2B-\	-hil	0r	.	4a\]	.	.	0r	.
.	.	.	.	4g\	.	.	.	.
2G\	.	.	.	1g	.	.	.	.
1A	que	.	.	.	.	.	.	.
.	.	.	.	2f#i\	que	.	.	.
=260	=260	=260	=260	=260	=260	=260	=260	=260
1G	est	2r	.	1g	-est	.	2.g/	Ni-
.	.	1g	Ni-	.	.	.	.	.
.	.	.	.	.	.	.	4a/	.
1r	.	.	.	1r	.	.	4b-\	.
.	.	.	.	.	.	.	4cc\	.
.	.	2f\	.	.	.	.	[2dd\	-hil
=261	=261	=261	=261	=261	=261	=261	=261	=261
0r	.	2e\	-hil	0r	.	.	4dd\]	.
.	.	.	.	.	.	.	4cc\	.
.	.	2c\	.	.	.	.	1cc	.
.	.	1d	que	.	.	.	.	.
.	.	.	.	.	.	.	2bni\	que
=262	=262	=262	=262	=262	=262	=262	=262	=262
2r	.	1c	est	2.c\	im-	.	1cc	est
1c	im-	.	.	.	.	.	.	.
.	.	.	.	4d\	.	.	.	.
.	.	1r	.	4e\	-pos-	.	1r	.
.	.	.	.	4f\	.	.	.	.
2B-\	-pos-	.	.	[2g\	-si-	.	.	.
=263	=263	=263	=263	=263	=263	=263	=263	=263
2A\	-si-	0r	.	4g\]	.	.	0r	.
.	.	.	.	4f\	.	.	.	.
2F\	.	.	.	1f	.	.	.	.
1G	-bi-	.	.	.	.	.	.	.
.	.	.	.	2e\	-bi-	.	.	.
=264	=264	=264	=264	=264	=264	=264	=264	=264
1F	-le	2r	.	1f	-le	.	2.f/	im-
.	.	1f	im-	.	.	.	.	.
.	.	.	.	.	.	.	4g/	.
1r	.	.	.	1r	.	.	4a/	-pos-
.	.	.	.	.	.	.	4b-\	.
.	.	2e\	-pos-	.	.	.	[2cc\	-si-
=265	=265	=265	=265	=265	=265	=265	=265	=265
0r	.	2d\	-si-	0r	.	.	4cc\]	.
.	.	.	.	.	.	.	4b-\	.
.	.	2B-\	.	.	.	.	1b-	.
.	.	1c	-bi-	.	.	.	.	.
.	.	.	.	.	.	.	2a/	-bi-
=266	=266	=266	=266	=266	=266	=266	=266	=266
2r	.	1B-	-le	1r	.	.	1b-	-le
2G\	a-	.	.	.	.	.	.	.
2F\	.	1r	.	2r	.	.	1r	.
2G\	.	.	.	2g\	a-	.	.	.
=267	=267	=267	=267	=267	=267	=267	=267	=267
2D\	.	0r	.	2f\	.	.	0r	.
2G\	.	.	.	2g\	.	.	.	.
2F\	-pud	.	.	2d\	-pud	.	.	.
[2G\	fi-	.	.	[2e-i\	fi-	.	.	.
=268	=268	=268	=268	=268	=268	=268	=268	=268
4G\]	.	0r	.	4e-\]	.	.	0r	.
4F\	-li-	.	.	4d\	-li-	.	.	.
2D\	-um	.	.	1d	-um	.	.	.
1E-i	tu-	.	.	.	.	.	.	.
.	.	.	.	2c\	tu-	.	.	.
=269	=269	=269	=269	=269	=269	=269	=269	=269
1D	um,	2r	.	1d	-um,	.	2.f/	a-
.	.	2d\	a-	.	.	.	.	.
.	.	.	.	.	.	.	4g/	.
1r	.	2c\	.	1r	.	.	2a/	.
.	.	2d\	.	.	.	.	2b-\	.
=270	=270	=270	=270	=270	=270	=270	=270	=270
0r	.	2A/	.	0r	.	.	2cc\	.
.	.	2d\	.	.	.	.	1a	-pud
.	.	2c\	-pud	.	.	.	.	.
.	.	[2d\	fi-	.	.	.	[2b-\	fi-
=271	=271	=271	=271	=271	=271	=271	=271	=271
0r	.	4d\]	.	0r	.	.	4b-\]	.
.	.	4c\	-li-	.	.	.	4a/	-li-
.	.	2A/	-um	.	.	.	1a	-um
.	.	1B-	tu-	.	.	.	.	.
.	.	.	.	.	.	.	2g/	tu-
=272	=272	=272	=272	=272	=272	=272	=272	=272
2r	.	1A	-um,	4A/	quem	.	1a	-um,
.	.	.	.	4B-\	.	.	.	.
2A\	quem	.	.	4c\	.	.	.	.
.	.	.	.	4d\	.	.	.	.
2G\	.	1r	.	2e\	.	.	1r	.
2A\	ge-	.	.	[2f\	ge-	.	.	.
=273	=273	=273	=273	=273	=273	=273	=273	=273
2F\	.	0r	.	4f\]	.	.	0r	.
.	.	.	.	4e\	-nu-	.	.	.
2G\	-nu-	.	.	1d	-i-	.	.	.
1E	-i-	.	.	.	.	.	.	.
.	.	.	.	2c#i\	.	.	.	.
=274	=274	=274	=274	=274	=274	=274	=274	=274
1D	-sti,	2r	.	1d	-sti,	.	4d/	quem
.	.	.	.	.	.	.	4e/	.
.	.	2d\	quem	.	.	.	4f/	.
.	.	.	.	.	.	.	4g/	.
1r	.	2c\	.	1r	.	.	2a/	.
.	.	2d\	ge-	.	.	.	[2b-\	ge-
=275	=275	=275	=275	=275	=275	=275	=275	=275
0r	.	2B-\	.	0r	.	.	4b-\]	.
.	.	.	.	.	.	.	4a/	-nu-
.	.	2c\	-nu-	.	.	.	1g	-i-
.	.	1A	-i	.	.	.	.	.
.	.	.	.	.	.	.	2f#i/	.
=276	=276	=276	=276	=276	=276	=276	=276	=276
2r	.	1G	-sti,	4G/	quem	.	1g	-sti,
.	.	.	.	4A/	.	.	.	.
2G\	quem	.	.	4B-\	.	.	.	.
.	.	.	.	4c\	.	.	.	.
2F\	.	1r	.	2d\	.	.	1r	.
2G\	ge-	.	.	[2e\	ge-	.	.	.
=277	=277	=277	=277	=277	=277	=277	=277	=277
2E\	.	0r	.	4e\]	.	.	0r	.
.	.	.	.	4d\	-nu-	.	.	.
2F\	-nu-	.	.	1c	-i-	.	.	.
1D	-i-	.	.	.	.	.	.	.
.	.	.	.	2Bni\	.	.	.	.
=278	=278	=278	=278	=278	=278	=278	=278	=278
1C	-sti	2r	.	1c	-sti,	.	4c/	quem
.	.	.	.	.	.	.	4d/	.
.	.	2c\	quem	.	.	.	4e/	.
.	.	.	.	.	.	.	4f/	.
1r	.	2B-\	.	1r	.	.	2g/	.
.	.	2c\	ge-	.	.	.	[2a/	ge-
=279	=279	=279	=279	=279	=279	=279	=279	=279
1r	.	2A/	.	0r	.	.	4a/]	.
.	.	.	.	.	.	.	4g/	-nu-
.	.	2B-\	-nu-	.	.	.	1f	-i-
2r	.	1G	-i-	.	.	.	.	.
2C/	de	.	.	.	.	.	2e/	.
=280	=280	=280	=280	=280	=280	=280	=280	=280
2.F\	tu-	1F	-sti	2r	.	.	1f	-sti
.	.	.	.	2c\	de	.	.	.
4E\	.	.	.	.	.	.	.	.
2F\	.	1r	.	2.f\	tu-	.	1r	.
2G\	.	.	.	.	.	.	.	.
.	.	.	.	4e\	.	.	.	.
=281	=281	=281	=281	=281	=281	=281	=281	=281
2A\	-o	0r	.	2f\	-o	.	0r	.
2B-\	sa-	.	.	2g\	sa-	.	.	.
2A\	-cro	.	.	2a\	-cro	.	.	.
[2d\	cor-	.	.	[2b-\	cor-	.	.	.
=282	=282	=282	=282	=282	=282	=282	=282	=282
2d\]	.	0r	.	4b-\]	.	.	0r	.
.	.	.	.	4a\	.	.	.	.
2c\	.	.	.	1a	.	.	.	.
1B-	-po-	.	.	.	.	.	.	.
.	.	.	.	2g\	-po-	.	.	.
=283	=283	=283	=283	=283	=283	=283	=283	=283
2.A\	-re,	1r	.	1a	-re,	.	0r	.
4G\	.	.	.	.	.	.	.	.
4F\	.	2r	.	4a\	de	.	.	.
4E\	.	.	.	4g\	.	.	.	.
2D\	.	2F/	de	4f\	.	.	.	.
.	.	.	.	4e\	.	.	.	.
=284	=284	=284	=284	=284	=284	=284	=284	=284
1.d	tu-	2.B-\	tu-	1.d	tu-	.	2r	.
.	.	.	.	.	.	.	2f/	de
.	.	4A/	.	.	.	.	.	.
.	.	2B-\	.	.	.	.	2.b-\	tu-
2c\	.	2c\	.	2e\	.	.	.	.
.	.	.	.	.	.	.	4a/	.
=285	=285	=285	=285	=285	=285	=285	=285	=285
2B-\	-o	2d\	o	2f\	-o	.	2b-\	-o
2A\	sa-	2e\	sa-	2c\	sa-	.	2cc\	sa-
2d\	-cro	2d\	-cro	2f\	-cro	.	2dd\	-cro
2c\	.	[2g\	cor-	2e\	.	.	[2ee\	cor-
=286	=286	=286	=286	=286	=286	=286	=286	=286
1B-	cor-	4g\]	.	1g	cor-	.	4ee\]	.
.	.	4f\	.	.	.	.	4dd\	.
.	.	2d\	.	.	.	.	1dd	.
1A	-po-	1e	-po-	1a	-po-	.	.	.
.	.	.	.	.	.	.	2cc#i\	-po-
=287	=287	=287	=287	=287	=287	=287	=287	=287
1D	-re,	0d	-re,	2.f\	-re,	.	0dd	-re,
.	.	.	.	4d\	.	.	.	.
2r	.	.	.	1d	.	.	.	.
2G\	Ma-	.	.	.	.	.	.	.
=288	=288	=288	=288	=288	=288	=288	=288	=288
2F\	-ri-	0r	.	2r	.	.	0r	.
2G\	-a	.	.	2d\	Ma-	.	.	.
2A\	ma-	.	.	2c\	-ri-	.	.	.
2B-\	-ter	.	.	2d\	-a	.	.	.
=289	=289	=289	=289	=289	=289	=289	=289	=289
2c\	.gra-	0r	.	2e\	ma-	.	1r	.
2A\	-ti-	.	.	2f\	-ter	.	.	.
1G	-e,	.	.	2g\	gra-	.	2r	.
.	.	.	.	2e\	-ti-	.	2g/	ma-
=290	=290	=290	=290	=290	=290	=290	=290	=290
1r	.	2r	.	0d	-e,	.	2f/	-ter
.	.	2G/	ma-	.	.	.	2g/	mi-
2r	.	2F/	-ter	.	.	.	2a/	-se-
2G\	ma-	2G/	mi-	.	.	.	2b-\	-ri-
=291	=291	=291	=291	=291	=291	=291	=291	=291
2F\	-ter	2A/	-se-	2r	.	.	2.cc\	-cor-
2G\	mi-	2B-\	-ri-	2g\	ma-	.	.	.
.	.	.	.	.	.	.	4b-\	.
2A\	-se-	2.c\	-cor-	2e\	-ter	.	4a/	.
.	.	.	.	.	.	.	4g/	.
2F\	-ri-	.	.	2f\	mi-	.	[2a/	.
.	.	4B-\	.	.	.	.	.	.
=292	=292	=292	=292	=292	=292	=292	=292	=292
1G	-cor-	2G/	.	2e\	-se-	.	2a/]	.
.	.	2B-\	.	2.d\	.	.	1g	.
1D	-di-	1A	-di-	.	.	.	.	.
.	.	.	.	4c\	.	.	.	.
.	.	.	.	2A/	-ri-	.	2f#i/	-di-
=293	=293	=293	=293	=293	=293	=293	=293	=293
[0Gl	-e.	[0Gl	-e.	2B-\	-cor-	.	[0gl	-e.
.	.	.	.	2G/	.	.	.	.
.	.	.	.	1e-i	-di-	.	.	.
=294	=294	=294	=294	=294	=294	=294	=294	=294
0G]	.	0G]	.	0dl	-e.	.	0g]	.
!!LO:LB:i:g=z
=295||	=295||	=295||	=295||	=295||	=295||	=295||	=295||	=295||
*>E	*	*>E	*	*>E	*	*	*>E	*
!!section: Quinta pars: Mente tota tibi supplicamus
!!!OMD: Quinta pars: Mente tota tibi supplicamus
*M2/1	*	*M2/1	*	*M2/1	*	*	*M2/1	*
*met(C|)	*	*met(C|)	*	*met(C|)	*	*	*met(C|)	*
0r	.	0r	.	0g	Men-	.	0r	.
=296	=296	=296	=296	=296	=296	=296	=296	=296
0r	.	0r	.	1g	-te	.	0r	.
.	.	.	.	1f	to-	.	.	.
=297	=297	=297	=297	=297	=297	=297	=297	=297
0G	Men-	0r	.	0g	-ta	.	0r	.
=298	=298	=298	=298	=298	=298	=298	=298	=298
1G	-te	0r	.	1g	ti-	.	0r	.
1F	to-	.	.	1a	-bi	.	.	.
=299	=299	=299	=299	=299	=299	=299	=299	=299
0G	-ta	0r	.	1.b-	sup-	.	0dd	Men-
.	.	.	.	2a\	-pli-	.	.	.
=300	=300	=300	=300	=300	=300	=300	=300	=300
1G	ti-	0r	.	2g\	-ca	.	1dd	-te
.	.	.	.	2f\	.	.	.	.
1A	-bi	.	.	1e	.	.	1cc	to-
=301	=301	=301	=301	=301	=301	=301	=301	=301
1.B-	sup-	0d	Men-	1.d	.	.	0dd	-ta
2A\	-pli-	.	.	2c\	.	.	.	.
=302	=302	=302	=302	=302	=302	=302	=302	=302
2G\	ca-	1d	-te	2B-\	.	.	1dd	ti-
2F\	.	.	.	2A/	.	.	.	.
1E	.	1c	to-	1G	.	.	1ee	-bi
=303	=303	=303	=303	=303	=303	=303	=303	=303
0D	.	0d	-ta	0A	.	.	1.ff	sup-
.	.	.	.	.	.	.	2ee\	-pli-
=304	=304	=304	=304	=304	=304	=304	=304	=304
0G	.	1d	ti-	0B-	-mus,	.	2dd\	-ca
.	.	.	.	.	.	.	2cc\	.
.	.	1e	-bi	.	.	.	1b-	.
=305	=305	=305	=305	=305	=305	=305	=305	=305
0F	.	1.f	sup-	1c	sup-	.	2.a/	.
.	.	.	.	.	.	.	4g/	.
.	.	.	.	1A	-pli-	.	4a/	.
.	.	.	.	.	.	.	4b-\	.
.	.	2e\	-pli-	.	.	.	2cc\	.
=306	=306	=306	=306	=306	=306	=306	=306	=306
0G	mus,	2d\	-ca	2B-\	-ca-	.	2b-\	.
.	.	2c\	.	2c\	.	.	1a	.
.	.	1B-	.	2d\	.	.	.	.
.	.	.	.	2e\	.	.	2g/	.
=307	=307	=307	=307	=307	=307	=307	=307	=307
1r	.	[0A	-mus	1.f	.	.	0a	-mus
[1D	sup-	.	.	.	.	.	.	.
.	.	.	.	4e\	.	.	.	.
.	.	.	.	4d\	.	.	.	.
=308	=308	=308	=308	=308	=308	=308	=308	=308
2D\]	.	0A]	.	2.f\	.	.	1r	.
2E\	.	.	.	.	.	.	.	.
.	.	.	.	4e\	.	.	.	.
1F	-pli-	.	.	1c	.	.	1a	ut
=309	=309	=309	=309	=309	=309	=309	=309	=309
1G	-ca-	1r	.	2.B-\	.	.	1b-	si-
.	.	.	.	8A/L	.	.	.	.
.	.	.	.	8G/J	.	.	.	.
1D	-mus	1A	ut	1d	-mus,	.	1a	-cut
=310	=310	=310	=310	=310	=310	=310	=310	=310
0r	.	1B-	si-	0r	.	.	2f/	fi-
.	.	.	.	.	.	.	2g/	.
.	.	1A	-cut	.	.	.	2a/	-li-
.	.	.	.	.	.	.	2b-\	-o-
=311	=311	=311	=311	=311	=311	=311	=311	=311
0r	.	2r	.	0r	.	.	2.cc\	tu-
.	.	1A	fi-	.	.	.	.	.
.	.	.	.	.	.	.	4b-\	.
.	.	.	.	.	.	.	4a/	.
.	.	.	.	.	.	.	4g/	.
.	.	2G/	-li-	.	.	.	[2b-\	.
=312	=312	=312	=312	=312	=312	=312	=312	=312
0r	.	1A	-o	1r	.	.	4b-\]	.
.	.	.	.	.	.	.	4a/	.
.	.	.	.	.	.	.	1a	.
.	.	1B-	tu-	1d	ut	.	.	.
.	.	.	.	.	.	.	2g/	.
=313	=313	=313	=313	=313	=313	=313	=313	=313
1r	.	0A	-o	1e-i	si-	.	0a	-o
1D	ut	.	.	1d	-cut	.	.	.
=314	=314	=314	=314	=314	=314	=314	=314	=314
1E-i	si-	0r	.	2B-\	fi-	.	0r	.
.	.	.	.	2c\	.	.	.	.
1D	-cut	.	.	2d\	-li-	.	.	.
.	.	.	.	2ei-\	-o	.	.	.
=315	=315	=315	=315	=315	=315	=315	=315	=315
2r	.	0r	.	2.f\	tu-	.	0r	.
1D	fi-	.	.	.	.	.	.	.
.	.	.	.	4ei-\	.	.	.	.
.	.	.	.	4d\	.	.	.	.
.	.	.	.	4c\	.	.	.	.
2C/	-li-	.	.	[2ei-\	.	.	.	.
=316	=316	=316	=316	=316	=316	=316	=316	=316
1D	-o	2r	.	4e-\]	.	.	0r	.
.	.	.	.	4d\	.	.	.	.
.	.	1A	do-	1d	.	.	.	.
1E-i	tu-	.	.	.	.	.	.	.
.	.	2G/	-mi-	2c\	.	.	.	.
=317	=317	=317	=317	=317	=317	=317	=317	=317
1D	-o,	1A	-no	1d	-o	.	2r	.
.	.	.	.	.	.	.	1a	do-
2r	.	1B-	nos-	2r	.	.	.	.
[2G\	do-	.	.	2d\	do-	.	2g/	-mi-
=318	=318	=318	=318	=318	=318	=318	=318	=318
2G\]	.	1A	-tro	2eni\	-mi-	.	1a	-no
2F\	-mi-	.	.	2f\	-no	.	.	.
1G	-no	2r	.	4e\	nos-	.	1b-	nos-
.	.	.	.	4d\	.	.	.	.
.	.	[2d\	Je-	[2g\	.	.	.	.
=319	=319	=319	=319	=319	=319	=319	=319	=319
1A	no-	2d\]	.	2g\]	.	.	2a/	-tro
.	.	2c\	-su	2f\	-tro	.	1cc	Je-
1G	-stro	1d	Chri-	1g	Je-	.	.	.
.	.	.	.	.	.	.	2b-\	-su
=320	=320	=320	=320	=320	=320	=320	=320	=320
2r	.	1e	.	1c	-su	.	1cc	Chri-
1c	Je-	.	.	.	.	.	.	.
.	.	1d	-sto	1r	.	.	1dd	.
2B-\	-su	.	.	.	.	.	.	.
=321	=321	=321	=321	=321	=321	=321	=321	=321
2c\	Chri-	2r	.	1r	.	.	1g	-sto
2G\	.	1g	a-	.	.	.	.	.
1A	.	.	.	1c	Chri-	.	1r	.
.	.	2f\	-li-	.	.	.	.	.
=322	=322	=322	=322	=322	=322	=322	=322	=322
2G\	-sto	2g\	-quan-	1d	-sto	.	2r	.
1B-	a-	2d\	.	.	.	.	1dd	a-
.	.	1e	.	1r	.	.	.	.
2A\	-li-	.	.	.	.	.	2cc\	-li-
=323	=323	=323	=323	=323	=323	=323	=323	=323
2B-\	-quan-	2d\	-do,	1r	.	.	2dd\	-quan-
2F\	.	1f	a-	.	.	.	2a/	.
1G	.	.	.	1B-	a-	.	1b-	.
.	.	2e\	-li-	.	.	.	.	.
=324	=324	=324	=324	=324	=324	=324	=324	=324
0F	-do	2f\	-quan-	2c\	-li-	.	0a	-do
.	.	2d\	.	2.f\	-quan-	.	.	.
.	.	1c	.	.	.	.	.	.
.	.	.	.	4e\	.	.	.	.
.	.	.	.	2f\	.	.	.	.
=325	=325	=325	=325	=325	=325	=325	=325	=325
2r	.	2.B-\	do	4d\	-do	.	2r	.
.	.	.	.	4c\	.	.	.	.
1G	dis-	.	.	4B-\	.	.	1b-	dis-
.	.	8A/L	.	4A/	.	.	.	.
.	.	8G/J	.	.	.	.	.	.
.	.	1d	.	2G/	dis-	.	.	.
2F\	-pli	.	.	2A/	-pli-	.	2a/	-pli-
=326	=326	=326	=326	=326	=326	=326	=326	=326
2G\	-cu-	2r	.	2G/	-cu-	.	2b-\	-cu-
2D\	.	1d	dis-	1A	.	.	2f/	.
1E	-i-	.	.	.	.	.	1g	-i-
.	.	2c\	-pli-	2G/	-i-	.	.	.
=327	=327	=327	=327	=327	=327	=327	=327	=327
[0D	-mus,	2d\	-cu-	1A	-mus,	.	0f	-mus,
.	.	2A/	.	.	.	.	.	.
.	.	1B-	i-	[1d	mo-	.	.	.
=328	=328	=328	=328	=328	=328	=328	=328	=328
0D]	.	0A	-mus,	2d\]	.	.	1r	.
.	.	.	.	2e\	.	.	.	.
.	.	.	.	2f\	.	.	1f	mo-
.	.	.	.	2d\	.	.	.	.
=329	=329	=329	=329	=329	=329	=329	=329	=329
0r	.	0r	.	2e\	-do	.	2g/	-do
.	.	.	.	2g\	vi-	.	2b-\	vi-
.	.	.	.	2f\	-ce	.	2a/	-ce
.	.	.	.	[2a\	ver-	.	[2cc\	ver-
=330	=330	=330	=330	=330	=330	=330	=330	=330
1r	.	0r	.	4a\]	.	.	4cc\]	.
.	.	.	.	4g\	.	.	4b-\	.
.	.	.	.	1g	.	.	4a/	.
.	.	.	.	.	.	.	4g/	.
2r	.	.	.	.	.	.	1a	.
2D\	mu-	.	.	2f\	.	.	.	.
=331	=331	=331	=331	=331	=331	=331	=331	=331
2E\	-ta-	0r	.	2g\	-sa	.	1g	-sa
2C/	.	.	.	2.e\	mu-	.	.	.
2D\	.	.	.	.	.	.	1r	.
.	.	.	.	4d\	.	.	.	.
2F\	.	.	.	[2d\	-ta-	.	.	.
=332	=332	=332	=332	=332	=332	=332	=332	=332
1E	.	2r	.	2d\]	.	.	2r	.
.	.	2G/	mu-	2c#i\	.	.	2g/	mu-
1D	-tis,	2A/	-ta-	1d	-tis,	.	2f/	.
.	.	2F/	.	.	.	.	[2a/	-ta-
=333	=333	=333	=333	=333	=333	=333	=333	=333
1r	.	2G/	.	0r	.	.	4a/]	.
.	.	.	.	.	.	.	4g/	.
.	.	2B-\	.	.	.	.	1g	.
2r	.	1A	.	.	.	.	.	.
2A\	mu-	.	.	.	.	.	2f#i/	.
=334	=334	=334	=334	=334	=334	=334	=334	=334
2B-\	.	1G	-tis,	2r	.	.	1g	-tis,
2c\	.	.	.	2g\	mu-	.	.	.
2.d\	-ta-	1r	.	2f\	.	.	1r	.
.	.	.	.	[2b-\	-ta-	.	.	.
4c\	.	.	.	.	.	.	.	.
=335	=335	=335	=335	=335	=335	=335	=335	=335
2A\	.	1r	.	4b-\]	.	.	0r	.
.	.	.	.	4a\	.	.	.	.
2c\	.	.	.	1a	.	.	.	.
1B-	.	2r	.	.	.	.	.	.
.	.	2d\	mu-	2g\	.	.	.	.
=336	=336	=336	=336	=336	=336	=336	=336	=336
1A	.tis,	2e\	.	1a	-tis,	.	2r	.
.	.	2f\	.	.	.	.	2cc\	mu-
1r	.	2.g\	-ta-	1r	.	.	2b-\	.
.	.	.	.	.	.	.	[2ee-i\	-ta-
.	.	4f\	.	.	.	.	.	.
=337	=337	=337	=337	=337	=337	=337	=337	=337
1r	.	2d\	.	1r	.	.	4ee-\]	.
.	.	.	.	.	.	.	4dd\	.
.	.	2f\	.	.	.	.	1dd	.
1A	mo-	1e	.	1a	mo-	.	.	.
.	.	.	.	.	.	.	2cc\	.
=338	=338	=338	=338	=338	=338	=338	=338	=338
1B-	-ri-	1d	-tis	1f	-ri-	.	1dd	-tis
1G	-bus,	2r	.	1g	-bus	.	2r	.
.	.	[2g\	mo-	.	.	.	2b-\	mo-
=339	=339	=339	=339	=339	=339	=339	=339	=339
1A	mo-	2g\]	.	2r	.	.	1cc	.
.	.	2f\	-ri-	2c\	per	.	.	.
2G\	-ri-	2g\	-bus	2d\	te	.	2b-\	-ri-
[2A\	-bus	[2e\	.	2c\	.	.	[2cc\	-bus
=340	=340	=340	=340	=340	=340	=340	=340	=340
2A\]	.	2e\]	.	1A	.	.	2cc\]	.
2F\	per	1f	per	.	.	.	2a/	per
1G	te	.	.	2r	.	.	2.b-\	te
.	.	2e\	.	2B-\	per	.	.	.
.	.	.	.	.	.	.	4cc\	.
=341	=341	=341	=341	=341	=341	=341	=341	=341
2F\	.	2f\	te	2c\	te,	.	2a/	.
1B-	us-	1d	.	2B-\	.	.	1dd	us-
.	.	.	.	2G/	.	.	.	.
2G\	.	[2e-\	us-	2b-\	us-	.	2b-\	.
=342	=342	=342	=342	=342	=342	=342	=342	=342
2A\	-que	2e-\]	.	2a\	-que	.	2cc\	-que
2B-\	.	2d\	.	2f\	.	.	2dd\	.
2G\	.	2e-i\	-que	2g\	.	.	2b-\	.
[2A\	.	[2c\	.	[2e\	fi	.	[2cc\	.
=343	=343	=343	=343	=343	=343	=343	=343	=343
2A\]	.	2c\]	.	4e\]	.	.	2cc\]	.
.	.	.	.	4f\	.	.	.	.
2F\	fi-	1d	fi-	2a\	.	.	2a/	fi-
2G\	.	.	.	2g\	.	.	2b-\	.
2A\	.	2c\	.	2e\	.	.	2cc\	.
=344	=344	=344	=344	=344	=344	=344	=344	=344
2D\	.	2d\	-nem	2f\	-nem	.	2a/	.
1G	-nem	1B-	.	2.d\	com-	.	1b-	-nem
.	.	.	.	4e\	.	.	.	.
2E\	com-	[2c\	com-	2g\	.	.	2g/	com-
=345	=345	=345	=345	=345	=345	=345	=345	=345
2F\	-pla-	2c\]	.	2f\	-pla-	.	2a/	-pla-
2G\	.	2B-\	.	2d\	.	.	2b-\	.
2C	.	2c\	-pla-	2e\	.	.	2g	.
[2F\	.	[2A/	.	[2c\	.	.	[2a/	.
=346	=346	=346	=346	=346	=346	=346	=346	=346
2F\]	.	2A/]	.	4c\]	.	.	2a/]	.
.	.	.	.	4d\	.	.	.	.
2D\	.	1B-	-ce-	2f\	-ce-	.	2f/	.
2E\	.	.	.	2e\	a-	.	2g/	.
2F\	.	2A/	.	[2d\	.	.	2a/	-ce-
=347	=347	=347	=347	=347	=347	=347	=347	=347
2G\	.	2B-\	-a-	2d\]	.	.	2d/	-a-
2E-\	-ce-	2G/	.	2c\	.	.	1g	.
1D	-a-	1A	.	1d	-mus.	.	.	.
.	.	.	.	.	.	.	2f#i/	.
=348	=348	=348	=348	=348	=348	=348	=348	=348
1d	-mus.	[0G	-mus.	2.B-\	Pre-	.	0g	-mus.
.	.	.	.	4c\	.	.	.	.
2.B-\	Pre-	.	.	2d\	.	.	.	.
.	.	.	.	2e-i\	.	.	.	.
4c\	.	.	.	.	.	.	.	.
=349	=349	=349	=349	=349	=349	=349	=349	=349
2d\	.	0G]	.	2d\	-ces	.	1r	.
2e-i\	.	.	.	2.g\	no-	.	.	.
1d	-ces	.	.	.	.	.	1g	Pre-
.	.	.	.	4a\	.	.	.	.
.	.	.	.	[2b-\	.	.	.	.
=350	=350	=350	=350	=350	=350	=350	=350	=350
1G	no-	0r	.	4b-\]	.	.	1b-	-ces
.	.	.	.	4a\	.	.	.	.
.	.	.	.	4g\	.	.	.	.
.	.	.	.	4f\	.	.	.	.
1A	.	.	.	1e	.	.	1cc	no-
=351	=351	=351	=351	=351	=351	=351	=351	=351
2D\	.	1r	.	0d	-stras,	.	0dd	-stras,
2.G\	.	.	.	.	.	.	.	.
.	.	1G	Pre-	.	.	.	.	.
4A\	.	.	.	.	.	.	.	.
[2B-\	.	.	.	.	.	.	.	.
=352	=352	=352	=352	=352	=352	=352	=352	=352
4B-\]	.	1B-	-ces	0G	no-	.	0r	.
4A\	.	.	.	.	.	.	.	.
4G\	.	.	.	.	.	.	.	.
4F\	.	.	.	.	.	.	.	.
1E	.	1c	no-	.	.	.	.	.
=353	=353	=353	=353	=353	=353	=353	=353	=353
[0D	-stras,	0d	-stras,	0A	-stras,	.	1r	.
.	.	.	.	.	.	.	1dd	vir-
=354	=354	=354	=354	=354	=354	=354	=354	=354
0D]	.	0r	.	1r	.	.	1.ff	-go
.	.	.	.	1d	vir-	.	.	.
.	.	.	.	.	.	.	2ee\	.
=355	=355	=355	=355	=355	=355	=355	=355	=355
0r	.	0r	.	2.f\	-go	.	1dd	.
.	.	.	.	4g\	.	.	.	.
.	.	.	.	2a\	mi-	.	2cc\	mi-
.	.	.	.	[2b-\	-ra-	.	[2dd\	-ra-
=356	=356	=356	=356	=356	=356	=356	=356	=356
1r	.	1r	.	4b-\]	.	.	4dd\]	.
.	.	.	.	4a\	.	.	4cc\	.
.	.	.	.	1a	.	.	2a/	.
1G	vir-	1d	vir-	.	.	.	1b-	-bi-
.	.	.	.	2g\	-bi-	.	.	.
=357	=357	=357	=357	=357	=357	=357	=357	=357
2.F\	-go	1.f	-go	0a	-lis,	.	1a	-lis,
4E\	.	.	.	.	.	.	.	.
2D\	.	.	.	.	.	.	[1f	mi-
2C/	.	2e\	.	.	.	.	.	.
=358	=358	=358	=358	=358	=358	=358	=358	=358
2BB-/	.	1d	.	0r	.	.	2f/]	.
2B-\	.	.	.	.	.	.	2g/	.
2A\	mi-	2c\	mi-	.	.	.	2a/	.
[2G\	-ra-	[2d\	-ra-	.	.	.	[2b-\	-ra-
=359	=359	=359	=359	=359	=359	=359	=359	=359
2G\]	.	4d\]	.	1r	.	.	4b-\]	.
.	.	4c\	.	.	.	.	4a/	.
2F\	.	2A/	.	.	.	.	1a	.
1G	-bi-	1B-	-bi-	[1d	mi-	.	.	.
.	.	.	.	.	.	.	2g/	-bi-
=360	=360	=360	=360	=360	=360	=360	=360	=360
[0D	-lis	[0A	-lis,	2d\]	.	.	1.a	-lis,
.	.	.	.	2.f\	-ra-	.	.	.
.	.	.	.	4e\	.	.	.	.
.	.	.	.	[2d\	.	.	4g/	.
.	.	.	.	.	.	.	4f/	.
=361	=361	=361	=361	=361	=361	=361	=361	=361
0D]	.	0A]	.	2d\]	.	.	0f	.
.	.	.	.	4c\	-bi-	.	.	.
.	.	.	.	4B-\	.	.	.	.
.	.	.	.	1A	-lis,	.	.	.
=362	=362	=362	=362	=362	=362	=362	=362	=362
0r	.	0r	.	3%2B-V	i-	.	3%2gV	i-
.	.	.	.	3%2B-	-de-	.	3%2g	-de-
.	.	.	.	3%2B-Z	-o	.	3%2gZ	-o
=363	=363	=363	=363	=363	=363	=363	=363	=363
0r	.	0r	.	3%2.AV	ne	.	3%4aV	ne
.	.	.	.	3B-\	.	.	.	.
.	.	.	.	3%2cZ	de-	.	3%2gZ	de-
=364	=364	=364	=364	=364	=364	=364	=364	=364
0r	.	0r	.	3%4dV	-spi-	.	3%2fV	-spi-
.	.	.	.	.	.	.	3%2d	.
.	.	.	.	3%2c#iZ	-ci-	.	3%2eZ	-ci-
=365	=365	=365	=365	=365	=365	=365	=365	=365
0r	.	0r	.	3%4dV	-as	.	3%4dV	-as
.	.	.	.	3%2rZ	.	.	3%2rZ	.
=366	=366	=366	=366	=366	=366	=366	=366	=366
3%4GV	qui-	3%4dV	qui-	3%4gV	qui-	.	3%4b-V	qui-
3%2GZ	-a	3%2dZ	-a	3%2gZ	-a	.	3%2b-Z	-a
=367	=367	=367	=367	=367	=367	=367	=367	=367
3%4AV	o-	3%4cV	o-	3%2.eV	o-	.	3%2ccV	o-
.	.	.	.	.	.	.	3%2a	.
.	.	.	.	3f\	.	.	.	.
3%2GZ	-re	3%2dZ	-re	3%2gZ	-re	.	3%2b-Z	-re
=368	=368	=368	=368	=368	=368	=368	=368	=368
3%2FV	in-	3%2AV	in-	3%2cV	in-	.	3%2aV	in-
3%2D	.	3%2B-	.	3%2d	.	.	3%2f	.
3%2EZ	-di-	3%2GZ	-di-	3%2cZ	-di-	.	3%2gZ	-di-
=369	=369	=369	=369	=369	=369	=369	=369	=369
3%4DV	-gno	3%4AV	-gno	3%4dV	-gno	.	3%4fV	-gno
3%2rZ	.	3%2rZ	.	3%2rZ	.	.	3%2rZ	.
=370	=370	=370	=370	=370	=370	=370	=370	=370
0r	.	0r	.	3%4gV	no-	.	3%4ddV	no-
.	.	.	.	3%2gZ	-men	.	3%2eeZ	-men
=371	=371	=371	=371	=371	=371	=371	=371	=371
0r	.	0r	.	3%4aV	sanc-	.	3%2ffV	sanc-
.	.	.	.	.	.	.	3%2.ee	-tum
.	.	.	.	3%2gZ	-tum	.	.	.
.	.	.	.	.	.	.	3dd\Z	.
=372	=372	=372	=372	=372	=372	=372	=372	=372
0r	.	0r	.	3%2fV	tu-	.	3%4ddV	tu-
.	.	.	.	3%2d	.	.	.	.
.	.	.	.	3%2eZ	.	.	3%2cc#iZ	.
=373	=373	=373	=373	=373	=373	=373	=373	=373
0r	.	0r	.	3%4dV	-um	.	3%4ddV	-um
.	.	.	.	3%2rZ	.	.	3%2rZ	.
=374	=374	=374	=374	=374	=374	=374	=374	=374
3%2GV	in-	3%2dV	in-	3%2gV	in-	.	3%2b-V	in-
3%2G	-vo-	3%2d	-vo-	3%2g	-vo-	.	3%2b-	-vo-
3%2GZ	-ca-	3%2dZ	-ca-	3%2gZ	-ca-	.	3%2b-Z	-ca-
=375	=375	=375	=375	=375	=375	=375	=375	=375
3%2AV	-re	3%2cV	-re	3%2eV	-re	.	3%4ccV	-re
3%2F	.	3%2A	.	3%2f	.	.	.	.
3%2GZ	pre-	3%2B-Z	pre-	3%2dZ	pre-	.	3%2b-Z	pre-
=376	=376	=376	=376	=376	=376	=376	=376	=376
3%2CV	-su-	3%4cV	-su-	3%2cV	-su-	.	3%2gV	.
3%2F	.	.	.	3%2A	.	.	3%2.a	-su-
3%2GZ	.	3%2B-Z	.	3%2B-Z	.	.	.	.
.	.	.	.	.	.	.	3g/Z	.
=377	=377	=377	=377	=377	=377	=377	=377	=377
3%2EV	-mi-	3%2GV	.	3%2cV	.	.	3%4gV	.
3%4DZ	-mus,	3%4AZ	-mi-	3%4dZ	-mi-	.	.	.
.	.	.	.	.	.	.	3%2f#iZ	-mi-
=378	=378	=378	=378	=378	=378	=378	=378	=378
1.d	pre-	[0G	-mus.	1.B-	-mus.	.	0g	-mus.
[2B-\	-su-	.	.	2G/	.	.	.	.
=379	=379	=379	=379	=379	=379	=379	=379	=379
2B-\]	.	0G]	.	1G	.	.	0r	.
2G\	-mi-	.	.	.	.	.	.	.
1G	-mus	.	.	1r	.	.	.	.
=380	=380	=380	=380	=380	=380	=380	=380	=380
0r	.	0r	.	1g	Sanc-	.	1b-	Sanc-
.	.	.	.	2g\	-ta	.	2b-\	-ta
.	.	.	.	2g\	Ma-	.	2b-\	Ma-
=381	=381	=381	=381	=381	=381	=381	=381	=81
0r	.	0r	.	1a	-ri-	.	1cc	-ri-
.	.	.	.	1f	-a	.	1a	-a
=382	=382	=382	=382	=382	=382	=382	=382	=382
1F	o-	1A	o-	0r	.	.	0r	.
2E\	-ra	2G/	-ra	.	.	.	.	.
2F\	pro	2A/	pro	.	.	.	.	.
=383	=383	=383	=383	=383	=383	=383	=383	=383
1G	no-	1B-	no-	0r	.	.	0r	.
1G	-bis;	1B-	-bis;	.	.	.	.	.
=384	=384	=384	=384	=384	=384	=384	=384	=384
0r	.	0r	.	2.g\	sanc-	.	2.b-\	sanc-
.	.	.	.	4g\	-ta	.	4b-\	-ta
.	.	.	.	2g\	de-	.	2b-\	de-
.	.	.	.	2b-\	-i	.	2dd\	i-
=385	=385	=385	=385	=385	=385	=385	=385	=385
0r	.	0r	.	2a\	ge-	.	2cc\	ge-
.	.	.	.	2g\	-ni-	.	2b-\	-ni-
.	.	.	.	1f	-trix,	.	1a	-trix,
=386	=386	=386	=386	=386	=386	=386	=386	=386
1F	o-	1A	o-	0r	.	.	0r	.
2E\	-ra	2G/	-ra	.	.	.	.	.
2F\	pro	2A/	pro	.	.	.	.	.
=387	=387	=387	=387	=387	=387	=387	=387	=387
1G	no-	1B-	no-	0r	.	.	0r	.
1G	-bis;	1B-	-bis;	.	.	.	.	.
=388	=388	=388	=388	=388	=388	=388	=388	=388
0r	.	0r	.	3%2gV	sanc-	.	3%2b-V	sanc-
.	.	.	.	3%2g	-ta	.	3%2b-	-ta
.	.	.	.	3%2gZ	vir-	.	3%2b-Z	vir-
=389	=389	=389	=389	=389	=389	=389	=389	=389
0r	.	0r	.	3%2fV	-go	.	3%2aV	-go
.	.	.	.	3%2g	vir-	.	3%2b-	vir-
.	.	.	.	3%2eZ	-gi-	.	3%2ccZ	-gi-
=390	=390	=390	=390	=390	=390	=390	=390	=390
0r	.	0r	.	3%2.dV	-num,	.	3%2.ddV	-num
.	.	.	.	3e\	.	.	3cc\	.
.	.	.	.	3%2fZ	.	.	3%2aZ	.
=391	=391	=391	=391	=391	=391	=391	=391	=391
3%2GV	in-	3%2dV	in-	3%2gV	in-	.	3%2b-V	in
3%2B-	-ter-	3%2d	-ter-	3%2f	-ter-	.	3%2b-	-ter-
3%2FZ	-ce-	3%2cZ	-ce-	3%2fZ	-ce-	.	3%2aZ	-ce-
=392	=392	=392	=392	=392	=392	=392	=392	=392
3%2GV	-de	3%2B-V	-de	3%2dV	-de	.	3%2gV	-de
3%2.F	pro	3%2.c	pro	3%2.f	pro-	.	3%2.a	pro-
3G\Z	.	3B-\Z	.	3e\Z	.	.	3g/Z	.
=393	=393	=393	=393	=393	=393	=393	=393	=393
3%2EV	.	3%2GV	.	3%2cV	.	.	3%4gV	no-
3%4DZ	no-	3%4AZ	no-	3%4dZ	no-	.	.	.
.	.	.	.	.	.	.	3%2f#iZ	.
=394	=394	=394	=394	=394	=394	=394	=394	=394
0Gl	-bis.	0Gl	-bis.	0dl	-bis.	.	0gl	-bis.
!!LO:LB:i:g=z
=395||	=395||	=395||	=395||	=395||	=395||	=395||	=395||	=395||
*>F	*	*>F	*	*>F	*	*	*>F	*
!!section: Sexta pars: Ora pro nobis
!!!OMD: Sexta pars: Ora pro nobis
*M2/1	*	*M2/1	*	*M2/1	*	*	*M2/1	*
*met(C|)	*	*met(C|)	*	*met(C|)	*	*	*met(C|)	*
0G	O	0r	.	0r	.	.	0r	.
=396	=396	=396	=396	=396	=396	=396	=396	=396
1F	-ra	0r	.	0r	.	.	0r	.
1F	pro	.	.	.	.	.	.	.
=397	=397	=397	=397	=397	=397	=397	=397	=397
0B-	no-	0G	O-	0r	.	.	0r	.
=398	=398	=398	=398	=398	=398	=398	=398	=398
1A	-bis	1F	-ra	0r	.	.	0r	.
[1D	vir-	1F	pro	.	.	.	.	.
=399	=399	=399	=399	=399	=399	=399	=399	=399
2D\]	.	0B-	no-	0r	.	.	0r	.
4E\	.	.	.	.	.	.	.	.
4F\	.	.	.	.	.	.	.	.
1G	.	.	.	.	.	.	.	.
=400	=400	=400	=400	=400	=400	=400	=400	=400
1.F	.	0A	-bis,	0r	.	.	0r	.
[2D\	.	.	.	.	.	.	.	.
=401	=401	=401	=401	=401	=401	=401	=401	=401
2D\]	.	1r	.	0r	.	.	0r	.
4C/	.	.	.	.	.	.	.	.
4BB-/	.	.	.	.	.	.	.	.
2BB-/	-go	[1d	vir-	.	.	.	.	.
2F\	si-	.	.	.	.	.	.	.
=402	=402	=402	=402	=402	=402	=402	=402	=402
2G\	.	1d]	.	0r	.	.	0r	.
1B-	.	.	.	.	.	.	.	.
.	.	1c	-go	.	.	.	.	.
2A\	.	.	.	.	.	.	.	.
=403	=403	=403	=403	=403	=403	=403	=403	=403
2B-\	.	1.B-	si-	0r	.	.	0r	.
1G	.	.	.	.	.	.	.	.
4F\	.	4A/	.	.	.	.	.	.
4E\	.	4G/	.	.	.	.	.	.
=404	=404	=404	=404	=404	=404	=404	=404	=404
2D\	.	1B-	-ne	0r	.	.	0r	.
1G	.	.	.	.	.	.	.	.
.	.	[1A	ter-	.	.	.	.	.
2F\	.	.	.	.	.	.	.	.
=405	=405	=405	=405	=405	=405	=405	=405	=405
1G	-ne	2A/]	.	0r	.	.	0r	.
.	.	2G/	.	.	.	.	.	.
1B-	ter-	[1G	.	.	.	.	.	.
=406	=406	=406	=406	=406	=406	=406	=406	=406
0A	-mi-	1G]	.	0r	.	.	0r	.
.	.	1F	-mi-	.	.	.	.	.
=407	=407	=407	=407	=407	=407	=407	=407	=407
0G	-no	1G	-no	0g	O	.	0r	.
.	.	1B-	.	.	.	.	.	.
=408	=408	=408	=408	=408	=408	=408	=408	=408
0D	.	0A	.	1f	-ra	.	0r	.
.	.	.	.	1f	pro	.	.	.
=409	=409	=409	=409	=409	=409	=409	=409	=409
0r	.	0r	.	0b-	no-	.	0g	O-
=410	=410	=410	=410	=410	=410	=410	=410	=410
0r	.	0r	.	1a	-bis	.	1f	-ra
.	.	.	.	[1d	vir-	.	1f	pro
=411	=411	=411	=411	=411	=411	=411	=411	=411
0G	vir-	1r	.	2d\]	.	.	0b-	no-
.	.	.	.	4e\	.	.	.	.
.	.	.	.	4f\	.	.	.	.
.	.	[1d	vir-	1g	.	.	.	.
=412	=412	=412	=412	=412	=412	=412	=412	=412
1D	.	1d]	.	1.f	.	.	0a	-bis,
1F	-go	1c	-go	.	.	.	.	.
.	.	.	.	2e\	.	.	.	.
=413	=413	=413	=413	=413	=413	=413	=413	=413
2.G\	si-	1.B-	si-	2d\	.	.	1r	.
.	.	.	.	2c\	.	.	.	.
4A\	.	.	.	.	.	.	.	.
1B-	.	.	.	1B-	-go	.	[1dd	vir
.	.	4A/	.	.	.	.	.	.
.	.	4G/	.	.	.	.	.	.
=414	=414	=414	=414	=414	=414	=414	=414	=414
1BB-	-ne	1B-	.	1.f	si-	.	1dd]	.
1F	ter-	1A	-ne	.	.	.	1cc	-go
.	.	.	.	2e\	.	.	.	.
=415	=415	=415	=415	=415	=415	=415	=415	=415
2.G\	.	1r	.	0d	.	.	1.b-	si-
4A\	.	.	.	.	.	.	.	.
[1B-	.	[1d	ter-	.	.	.	.	.
.	.	.	.	.	.	.	4a/	.
.	.	.	.	.	.	.	4g/	.
=416	=416	=416	=416	=416	=416	=416	=416	=416
!	!	!	!	!LO:TX:Z=6:t=Sources&colon; b-c'	!	!	!	!
1B-]	.	1d]	.	1G	-ne	.	1b-	-ne
1F	.	1c	.	1A	ter-	.	[1a	ter-
=417	=417	=417	=417	=417	=417	=417	=417	=417
1G	.	1B-	.	1B-	.	.	2a/]	.
.	.	.	.	.	.	.	2g/	.
1E	-mi-	1G	.	1c	.	.	[1g	.
=418	=418	=418	=418	=418	=418	=418	=418	=418
0D	-no,	0A	-mi-	0d	-mi-	.	1g]	.
.	.	.	.	.	.	.	1f#i	-mi-
=419	=419	=419	=419	=419	=419	=419	=419	=419
0E-i	de	1G	-no,	1B-	-no,	.	0g	-no,
.	.	[1B-	de	1G	.	.	.	.
=420	=420	=420	=420	=420	=420	=420	=420	=420
0D	qua	1B-]	.	0r	.	.	0r	.
.	.	1A	qua	.	.	.	.	.
=421	=421	=421	=421	=421	=421	=421	=421	=421
0E-i	lu-	0G	lu-	0r	.	.	0r	.
=422	=422	=422	=422	=422	=422	=422	=422	=422
1D	-men	1F	-men	0r	.	.	0r	.
[1E-i	or-	[1G	or-	.	.	.	.	.
=423	=423	=423	=423	=423	=423	=423	=423	=423
1E-]	.	2G/]	.	0r	.	.	0r	.
.	.	2F/	.	.	.	.	.	.
1D	.	[1B-	.	.	.	.	.	.
=424	=424	=424	=424	=424	=424	=424	=424	=424
0C	-tum	1B-]	.	0e-	de	.	0r	.
.	.	1A	-tum	.	.	.	.	.
=425	=425	=425	=425	=425	=425	=425	=425	=425
0BB-	est,	1.B-	est,	2.d\	qua	.	1r	.
.	.	.	.	4c\	.	.	.	.
.	.	.	.	2B-\	.	.	[1b-	de
.	.	2c\	de	2A/	.	.	.	.
=426	=426	=426	=426	=426	=426	=426	=426	=426
0r	.	2d\	qua	1G	.	.	1b-]	.
.	.	2e\	.	.	.	.	.	.
.	.	[1f	lu-	1F	.	.	1a	qua
=427	=427	=427	=427	=427	=427	=427	=427	=427
0r	.	1f]	.	2.c\	lu-	.	0g	lu-
.	.	.	.	4B-\	.	.	.	.
.	.	1e	.	2c\	.	.	.	.
.	.	.	.	2G/	.	.	.	.
=428	=428	=428	=428	=428	=428	=428	=428	=428
1r	.	1d	-men	1B-	-men	.	1f	-men
[1C	or-	[1e-	or-	[1E-	or-	.	[1g	or-
=429	=429	=429	=429	=429	=429	=429	=429	=429
1C]	.	1e-]	.	1E-]	.	.	2g/]	.
.	.	.	.	.	.	.	2f/	.
1BB-	-tum	1d	.	[1f	.	.	[1b-	.
=430	=430	=430	=430	=430	=430	=430	=430	=430
0F	est	0c	-tum	1f]	.	.	1b-]	.
.	.	.	.	1f	-tum	.	1a	-tum
=431	=431	=431	=431	=431	=431	=431	=431	=431
1r	.	[0B-	est	0d	est	.	[0b-	est
1BB-	in	.	.	.	.	.	.	.
=432	=432	=432	=432	=432	=432	=432	=432	=432
1BB-	te-	0B-]	.	1r	.	.	0b-]	.
1BB-	-ne-	.	.	1B-	in	.	.	.
=433	=433	=433	=433	=433	=433	=433	=433	=433
[0E-i	-bris	1r	.	1B-	te-	.	0r	.
.	.	1G	in	1B-	-ne-	.	.	.
=434	=434	=434	=434	=434	=434	=434	=434	=434
1.E-]	.	1G	te-	[0e-	-bris	.	1r	.
.	.	1G	-ne-	.	.	.	1g	in
4D\	.	.	.	.	.	.	.	.
4C/	.	.	.	.	.	.	.	.
=435	=435	=435	=435	=435	=435	=435	=435	=435
0C	.	1.c	-bris	1.e-]	.	.	1g	te-
.	.	.	.	.	.	.	1g	-ne-
.	.	2B-\	.	4d\	.	.	.	.
.	.	.	.	4c\	.	.	.	.
=436	=436	=436	=436	=436	=436	=436	=436	=436
1r	.	2A/	.	0c	.	.	1.cc	-bris
.	.	2G/	.	.	.	.	.	.
[1F	rec-	1F	.	.	.	.	.	.
.	.	.	.	.	.	.	2b-\	.
=437	=437	=437	=437	=437	=437	=437	=437	=437
2F\]	.	1.f	rec-	1r	.	.	2a/	.
2E\	.	.	.	.	.	.	2g/	.
2D\	.	.	.	[1f	rec-	.	1f	.
2C/	.	2e\	.	.	.	.	.	.
=438	=438	=438	=438	=438	=438	=438	=438	=438
[0BB-	-tis	2d\	.	2f\]	.	.	1.ff	rec-
.	.	2c\	.	2e\	.	.	.	.
.	.	1B-	-tis	2d\	.	.	.	.
.	.	.	.	2c\	.	.	2ee\	.
=439	=439	=439	=439	=439	=439	=439	=439	=439
0BB-_	.	2.f\	cor-	1B-	-tis	.	2dd\	.
.	.	.	.	.	.	.	2cc\	.
.	.	4e\	.	.	.	.	.	.
.	.	2d\	.	[1f	cor-	.	2.b-\	-tis
.	.	2c\	.	.	.	.	.	.
.	.	.	.	.	.	.	4a/	.
=440	=440	=440	=440	=440	=440	=440	=440	=440
0BB-]	.	2.B-\	.	2f\]	.	.	1.ff	cor-
.	.	.	.	2e\	.	.	.	.
.	.	4A/	.	.	.	.	.	.
.	.	[1f	.	2d\	.	.	.	.
.	.	.	.	2c\	.	.	2ee\	.
=441	=441	=441	=441	=441	=441	=441	=441	=441
1.BB-	cor-	2f\]	.	2.B-\	.	.	2dd\	.
.	.	2e\	.	.	.	.	2cc\	.
.	.	.	.	4A/	.	.	.	.
.	.	2d\	.	2.f\	.	.	2b-\	.
2C/	.	2c\	.	.	.	.	[2a/	.
.	.	.	.	4e\	.	.	.	.
=442	=442	=442	=442	=442	=442	=442	=442	=442
2D\	.	2B-\	.	2d\	.	.	2a/]	.
2E-i\	.	2G/	.	2c\	.	.	1g	.
1D	.	1A	.	1d	.	.	.	.
.	.	.	.	.	.	.	2f#i/	.
=443	=443	=443	=443	=443	=443	=443	=443	=443
0G	-de.	[0G	-de.	0B-	-de.	.	[0g	-de.
=444	=444	=444	=444	=444	=444	=444	=444	=444
1r	.	0G]	.	1r	.	.	0g]	.
1G	Ex-	.	.	1b-	Ex-	.	.	.
=445	=445	=445	=445	=445	=445	=445	=445	=445
1F	-au-	0r	.	1a	-au-	.	0r	.
1G	.	.	.	1g	.	.	.	.
=446	=446	=446	=446	=446	=446	=446	=446	=446
0A	-di	0r	.	1.f#i	-di	.	0r	.
.	.	.	.	2e\	.	.	.	.
=447	=447	=447	=447	=447	=447	=447	=447	=447
0G	nos	1r	.	0g	nos	.	1r	.
.	.	1G	Ex-	.	.	.	1b-	Ex-
=448	=448	=448	=448	=448	=448	=448	=448	=448
0r	.	1F	au-	0r	.	.	1a	-au-
.	.	1G	.	.	.	.	1g	.
=449	=449	=449	=449	=449	=449	=449	=449	=449
0r	.	0A	-di	0r	.	.	1.f#i	-di
.	.	.	.	.	.	.	2e/	.
=450	=450	=450	=450	=450	=450	=450	=450	=450
1r	.	0G	nos	0r	.	.	0g	nos
[1B-	in	.	.	.	.	.	.	.
=451	=451	=451	=451	=451	=451	=451	=451	=451
1B-]	.	0d	in	0r	.	.	0r	.
1B-	tri-	.	.	.	.	.	.	.
=452	=452	=452	=452	=452	=452	=452	=452	=452
1B-	-bu-	1d	tri-	0r	.	.	0r	.
1B-	-la-	1d	-bu-	.	.	.	.	.
=453	=453	=453	=453	=453	=453	=453	=453	=453
1A	-ti-	1c	-la-	0r	.	.	0r	.
1G	-o-	1B-	-ti-	.	.	.	.	.
=454	=454	=454	=454	=454	=454	=454	=454	=454
2.F\	-ne	2A/	-o-	0r	.	.	0r	.
.	.	1f	.	.	.	.	.	.
4E\	.	.	.	.	.	.	.	.
2D\	.	.	.	.	.	.	.	.
[2C/	nos-	2e\	-ne	.	.	.	.	.
=455	=455	=455	=455	=455	=455	=455	=455	=455
4C/]	.	2d\	nos-	0r	.	.	0r	.
4BB-/	.	.	.	.	.	.	.	.
1B-	.	2B-\	.	.	.	.	.	.
.	.	1c	.	.	.	.	.	.
2A\	.	.	.	.	.	.	.	.
=456	=456	=456	=456	=456	=456	=456	=456	=456
1.B-	.	[0B-	-tra	0d	in	.	1r	.
.	.	.	.	.	.	.	[1b-	in
2BB-/	.	.	.	.	.	.	.	.
=457	=457	=457	=457	=457	=457	=457	=457	=457
0BB-	-tra	0B-]	.	1d	tri-	.	1b-]	.
.	.	.	.	1d	-bu-	.	1b-	tri-
=458	=458	=458	=458	=458	=458	=458	=458	=458
0r	.	0r	.	1G	-la-	.	1b-	-bu-
.	.	.	.	1d	-ti-	.	1b-	-la-
=459	=459	=459	=459	=459	=459	=459	=459	=459
0r	.	0r	.	2c\	-o-	.	1a	-ti-
.	.	.	.	2A/	.	.	.	.
.	.	.	.	2.B-\	.	.	1g	-o-
.	.	.	.	4c\	.	.	.	.
=460	=460	=460	=460	=460	=460	=460	=460	=460
0r	.	0r	.	2A/	-ne	.	2.f/	-ne
.	.	.	.	1f	nos-	.	.	.
.	.	.	.	.	.	.	4g/	.
.	.	.	.	.	.	.	4a/	.
.	.	.	.	.	.	.	4b-\	.
.	.	.	.	2e\	.	.	[2cc\	nos-
=461	=461	=461	=461	=461	=461	=461	=461	=461
0r	.	0r	.	2d\	.	.	4cc\]	.
.	.	.	.	.	.	.	4b-\	.
.	.	.	.	2B-\	.	.	1b-	.
.	.	.	.	1c	.	.	.	.
.	.	.	.	.	.	.	2a/	.
=462	=462	=462	=462	=462	=462	=462	=462	=462
2r	.	1r	.	0B-	-tra	.	0b-	-tra
2.BB-/	et	.	.	.	.	.	.	.
.	.	1d	et	.	.	.	.	.
4C/	.	.	.	.	.	.	.	.
2D\	.	.	.	.	.	.	.	.
=463	=463	=463	=463	=463	=463	=463	=463	=463
2E\	ve-	1c	ve-	0r	.	.	0r	.
2F\	-ni-	.	.	.	.	.	.	.
2BB-/	-am	1d	-ni-	.	.	.	.	.
[2B-\	im-	.	.	.	.	.	.	.
=464	=464	=464	=464	=464	=464	=464	=464	=464
4B-\]	.	2G/	-am	0r	.	.	0r	.
4A\	.	.	.	.	.	.	.	.
4G\	.	2d\	im-	.	.	.	.	.
4F\	.	.	.	.	.	.	.	.
2E-\	-pe-	2c\	-pe-	.	.	.	.	.
[2D\	.	[2d\	.	.	.	.	.	.
=465	=465	=465	=465	=465	=465	=465	=465	=465
4D\]	.	2d\]	.	0r	.	.	0r	.
4E-i\	.	.	.	.	.	.	.	.
1G	.	2B-\	.	.	.	.	.	.
.	.	1A	.	.	.	.	.	.
2F#i\	.	.	.	.	.	.	.	.
=466	=466	=466	=466	=466	=466	=466	=466	=466
0G	-tra	0G	-tra	2r	.	.	1r	.
.	.	.	.	2.B-\	et	.	.	.
.	.	.	.	.	.	.	1dd	et
.	.	.	.	4c\	.	.	.	.
.	.	.	.	2d\	.	.	.	.
=467	=467	=467	=467	=467	=467	=467	=467	=467
0r	.	0r	.	2e\	ve-	.	1cc	ve-
.	.	.	.	2f\	-ni-	.	.	.
.	.	.	.	2B-\	-am	.	1dd	-ni-
.	.	.	.	[2b-\	im-	.	.	.
=468	=468	=468	=468	=468	=468	=468	=468	=468
0r	.	0r	.	4b-\]	.	.	2g/	-am
.	.	.	.	4a\	.	.	.	.
.	.	.	.	4g\	.	.	2dd\	im-
.	.	.	.	4f\	.	.	.	.
.	.	.	.	2e-i\	-pe-	.	2cc\	-pe-
.	.	.	.	[2d\	.	.	[2dd\	.
=469	=469	=469	=469	=469	=469	=469	=469	=469
1r	.	0r	.	4d\]	.	.	2dd\]	.
.	.	.	.	4e-i\	.	.	.	.
.	.	.	.	1g	.	.	2b-\	.
1D	pro	.	.	.	.	.	1a	.
.	.	.	.	2f#i\	.	.	.	.
=470	=470	=470	=470	=470	=470	=470	=470	=470
1E	.	1r	.	1g	-tra	.	0g	-tra
1G	pec-	1B-	pro	2.d\	pro	.	.	.
.	.	.	.	4e\	.	.	.	.
=471	=471	=471	=471	=471	=471	=471	=471	=471
1F	-ca-	1A	.	4f\	.	.	1r	.
.	.	.	.	4g\	.	.	.	.
.	.	.	.	2a\	.	.	.	.
2G\	.	1G	pec-	2d\	.	.	1b-	pro
2E\	.	.	.	2e\	pec-	.	.	.
=472	=472	=472	=472	=472	=472	=472	=472	=472
2F\	.	1F	-ca-	2c\	-ca-	.	1a	.
2D\	.	.	.	2d\	.	.	.	.
2.E-i\	.	[1B-	.	4G/	.	.	1g	pec-
.	.	.	.	4A/	.	.	.	.
.	.	.	.	4B-\	.	.	.	.
4D\	.	.	.	4c\	.	.	.	.
=473	=473	=473	=473	=473	=473	=473	=473	=473
1BB-	.	1B-]	.	4d\	.	.	2f/	-ca-
.	.	.	.	4e\	.	.	.	.
.	.	.	.	1.f	-tis	.	1b-	.
1F	.	1c	-tis	.	.	.	.	.
.	.	.	.	.	.	.	2a/	.
=474	=474	=474	=474	=474	=474	=474	=474	=474
2BB-/	-tis	1d	nos-	2.f\	nos-	.	2b-\	-tis
2B-\	nos-	.	.	.	.	.	1dd	nos-
.	.	.	.	4g\	.	.	.	.
2A\	.	1e	.	2a\	.	.	.	.
2c\	.	.	.	2g\	.	.	2cc\	.
=475	=475	=475	=475	=475	=475	=475	=475	=475
1.B-	.	2.f\	.	2b-\	.	.	2dd\	.
.	.	.	.	2f\	.	.	2.ff\	.
.	.	4e\	.	.	.	.	.	.
.	.	2d\	.	2g\	.	.	.	.
.	.	.	.	.	.	.	4dd\	.
2A\	.	2c\	.	2a\	.	.	[2ee\	.
=476	=476	=476	=476	=476	=476	=476	=476	=476
2B-\	.	2f\	.	2f\	.	.	4ee\]	.
.	.	.	.	.	.	.	4dd\	.
2G\	.	2g\	.	2b-\	.	.	1dd	.
1A	-tris	1e	-tris	1a	-tris	.	.	.
.	.	.	.	.	.	.	2cc#i\	.
=477	=477	=477	=477	=477	=477	=477	=477	=477
3%2DV	a	3%2dV	a	3%2fV	a	.	1dd	tris
3D\Z	pa-	3d\Z	pa-	3f\Z	pa-	.	.	.
3%2AV	-tre	3%2cV	-tre	3%2eV	-tre	.	1r	.
3A\ZZ	et	3A/Z	et	3f\Z	et	.	.	.
=478	=478	=478	=478	=478	=478	=478	=478	=478
3%2GV	fi-	3%2B-V	fi-	3%2gV	fi-	.	3%2ddV	a
3B-\Z	-li-	3G/Z	-li-	3g\Z	-li-	.	3dd\Z	pa-
3%2AV	-o	3%2AV	-o	3%2eV	-o	.	3%2ccV	-tre
3A\ZZ	et	3c\Z	et	3f\Z	et	.	3a/Z	et
=479	=479	=479	=479	=479	=479	=479	=479	=479
3%2GV	spi-	3B-/V	spi-	3%2gV	spi-	.	3%2b-V	fi-
.	.	3G/	-ri-	.	.	.	.	.
3G\Z	-ri-	3B-\Z	-tu	3d\Z	-ri-	.	3g/Z	-li-
3%2FV	-tu-	3A/V	sanc-	3%2fV	-tu	.	3%2aV	-o
.	.	3F/	.	.	.	.	.	.
3F\Z	sanc-	3A/Z	-to	3f\Z	sanc-	.	3cc\Z	et
=480	=480	=480	=480	=480	=480	=480	=480	=480
3G\V	-to,	3%2GV	a	3.d\V	-to	.	3%2b-V	spi-
3B-\	a	.	.	.	.	.	.	.
.	.	.	.	6e\	a	.	.	.
3A\Z	pa-	3F/Z	pa-	3f\Z	pa-	.	3cc\Z	.
3%2GV	-tre	3%2B-V	-tre	3d\V	-tre	.	3%2ddV	-ri-
.	.	.	.	3%2GZ	et	.	.	.
3E\Z	et	3c\Z	et	.	.	.	3ee\Z	-tu
=481	=481	=481	=481	=481	=481	=481	=481	=481
3%2DV	fi-	3%2dV	fi	3A/V	fi-	.	3%2ffV	sanc-
.	.	.	.	3B-\	.	.	.	.
3C/Z	-li-	3e\Z	-li-	3c\Z	-li-	.	3ee\Z	.
3D\V	-o	3%2fV	-o	3A/V	-o	.	3%2ddV	.
3BB-/	.	.	.	3B-\	.	.	.	.
3C/Z	et	3e\Z	et	3G/Z	et	.	3cc\Z	.
=482	=482	=482	=482	=482	=482	=482	=482	=482
3%2DV	spi-	3%2dV	spi-	3F/V	spi-	.	3b-\V	.
.	.	.	.	3f\	.	.	3.a/	.
3E-i\Z	-ri-	3B-\Z	-ri-	3g\Z	-ri-	.	.	.
.	.	.	.	.	.	.	6g/Z	.
3C/V	-tu	3c\V	-tu	3e-i\V	-tu	.	3%2gV	.
3%2DZ	sanc-	3%2AZ	sanc-	3%2dZ	sanc-	.	.	.
.	.	.	.	.	.	.	3f#i/Z	.
=483	=483	=483	=483	=483	=483	=483	=483	=483
1.G	-to.	1.G	-to.	2B-\	-to.	.	1.g	to.
.	.	.	.	2G/	.	.	.	.
.	.	.	.	[1d	A-	.	.	.
2D\	A-	2A/	A-	.	.	.	2f/	A-
=484	=484	=484	=484	=484	=484	=484	=484	=484
2G\	.	2B-\	.	2d\]	.	.	2g/	.
2D\	.	2A/	.	4e\	.	.	2f/	.
.	.	.	.	4f\	.	.	.	.
2G\	.	2B-\	.	2d\	.	.	2g/	.
2C/	.	2c\	.	2e\	.	.	2a/	.
=485	=485	=485	=485	=485	=485	=485	=485	=485
[0D	.	2A/	.	[0d	.	.	[0f#i	.
.	.	2B-\	.	.	.	.	.	.
.	.	2A/	.	.	.	.	.	.
.	.	[2B-\	.	.	.	.	.	.
=486	=486	=486	=486	=486	=486	=486	=486	=486
0D]	.	4B-\]	.	0d]	.	.	0f#]	.
.	.	4A/	.	.	.	.	.	.
.	.	4B-\	.	.	.	.	.	.
.	.	4G/	.	.	.	.	.	.
.	.	1A	.	.	.	.	.	.
=487	=487	=487	=487	=487	=487	=487	=487	=487
0Gl	-men.	0Gl	-men.	0dl	-men.	.	0gl	-men.
!!LO:LB:i:g=z
=488||	=488||	=488||	=488||	=488||	=488||	=488||	=488||	=488||
*>G	*	*>G	*	*>G	*	*	*>G	*
!!section: Septima pars: Christe, fili dei
!!!OMD: Septima pars: Christe, fili dei
!	!	!	!	!LO:TX:Z=6:X:=-50:t=A quotes discantus of the anon. "J'ay pris amours" down a 5th	!	!	!	!
0r	.	0r	.	0r	.	.	0g	Chri-
=489	=489	=489	=489	=489	=489	=489	=489	=489
0r	.	0G	Chri-	0r	.	.	0g	-ste,
=490	=490	=490	=490	=490	=490	=490	=490	=490
0r	.	0G	-ste,	0r	.	.	1.b-	fi-
.	.	.	.	.	.	.	2a/	.
=491	=491	=491	=491	=491	=491	=491	=491	=491
0r	.	1.B-	fi-	0r	.	.	1f	.
.	.	.	.	.	.	.	1g	-li
.	.	2A/	.	.	.	.	.	.
=492	=492	=492	=492	=492	=492	=492	=492	=492
0r	.	1F	.	0r	.	.	1a	de-
.	.	1G	-li	.	.	.	[1b-	.
=493	=493	=493	=493	=493	=493	=493	=493	=493
0r	.	0A	de-	0r	.	.	2b-\]	.
.	.	.	.	.	.	.	2a/	.
.	.	.	.	.	.	.	[1a	.
=494	=494	=494	=494	=494	=494	=494	=494	=494
1r	.	0B-	.	0d	J'ay	Sal-	1a]	.
1G	Sal-	.	.	.	.	.	1g	.
=495	=495	=495	=495	=495	=495	=495	=495	=495
1F	-va-	1A	.	1f	pris	-va-	0a	-i,
1D	-tor	[1d	.	1f	a-	-tor	.	.
=496	=496	=496	=496	=496	=496	=496	=496	=496
0E	nos-	1d]	.	0e	-mours,	nos-	0r	.
.	.	1c#i	.	.	.	.	.	.
=497	=497	=497	=497	=497	=497	=497	=497	=497
0D	-ter,	0d	-i,	0A	.	-ter,	1r	.
.	.	.	.	.	.	.	1f	mun-
=498	=498	=498	=498	=498	=498	=498	=498	=498
0E	mun-	0G	mun-	1r	.	.	1g	-di
.	.	.	.	1c	a	mun-	1e	qui
=499	=499	=499	=499	=499	=499	=499	=499	=499
1D	-di	1A	-di	1d	ma	-di	1f	cri-
1G	qui	1B-	qui	1e	de-	qui	1g	.
=500	=500	=500	=500	=500	=500	=500	=500	=500
2F\	cri-	2A/	cri-	1f	-vi-	cri-	2a/	.
2D\	.	2F/	.	.	.	.	1b-	.
1E	-mi-	2.G/	.	2e\	.	-mi-	.	.
.	.	.	.	2c\	.	.	4a/	-mi-
.	.	4A/	.	.	.	.	4g/	.
=501	=501	=501	=501	=501	=501	=501	=501	=501
1D	-na	2B-\	.	1d	.	-na	1f	-na
.	.	1A	.	.	.	.	.	.
1E	tol-	.	.	1c	-se,	.	1r	.
.	.	2G/	-mi-	.	.	.	.	.
=502	=502	=502	=502	=502	=502	=502	=502	=502
1D	.	1A	-na	1r	.	.	1f	tol-
1G	.	2r	.	1e	a	tol-	1g	.
.	.	2B-\	tol-	.	.	.	.	.
=503	=503	=503	=503	=503	=503	=503	=503	=503
2F\	.	2c\	.	1f	ma	.	2a/	.
2D\	.	1d	.	.	.	.	1b-	.
1E	.	.	.	1g	de-	.	.	.
.	.	2c\	.	.	.	.	4a/	.
.	.	.	.	.	.	.	4g/	.
=504	=504	=504	=504	=504	=504	=504	=504	=504
1D	-lis,	1d	.	1a	-vi-	-lis,	1f	-lis,
1E	mi-	1G	.	2g\	.	mi-	1g	.
.	.	.	.	2e\	.	-se-	.	.
=505	=505	=505	=505	=505	=505	=505	=505	=505
1D	.	1A	-lis,	2f\	.	-re-	2r	.
.	.	.	.	1d	.	-re	2f/	mi-
1G	-se-	1G	.	.	.	.	2g/	.
.	.	.	.	[2e\	.	no-	2b-\	.
=506	=506	=506	=506	=506	=506	=506	=506	=506
2F\	-re-	2r	.	4e\]	.	.	2a/	-se-
.	.	.	.	4d\	.	.	.	.
2D\	.	2F/	mi-	1d	.	.	1b-	-re-
1E	-re	2.G/	.	.	.	.	.	.
.	.	.	.	2c\	.	.	4a/	-re
.	.	4A/	-se-	.	.	.	4g/	.
=507	=507	=507	=507	=507	=507	=507	=507	=507
0D	no-	2B-\	-re-	[0dl;	-se.	-bis.	2f/	no-
.	.	2G/	-re	.	.	.	1g	.
.	.	1A	no-	.	.	.	.	.
.	.	.	.	.	.	.	2f#i/	.
=508	=508	=508	=508	=508	=508	=508	=508	=508
0Gl;	-bis.	0G;	-bis.	0d;]	.	.	0gl;	-bis.
=509	=509	=509	=509	=509	=509	=509	=509	=509
0r	.	0r	.	0r	.	.	0g	Chri-
=510	=510	=510	=510	=510	=510	=510	=510	=510
0r	.	0G	Chri-	0r	.	.	0g	-ste,
=511	=511	=511	=511	=511	=511	=511	=511	=511
0r	.	0G	-ste,	0r	.	.	1.b-	fi-
.	.	.	.	.	.	.	2a/	.
=512	=512	=512	=512	=512	=512	=512	=512	=512
0r	.	1.B-	fi-	0r	.	.	1f	.
.	.	.	.	.	.	.	1g	-li
.	.	2A/	.	.	.	.	.	.
=513	=513	=513	=513	=513	=513	=513	=513	=513
0r	.	1F	.	0r	.	.	1a	de-
.	.	1G	-li	.	.	.	[1b-	.
=514	=514	=514	=514	=514	=514	=514	=514	=514
0r	.	0A	de-	0r	.	.	2b-\]	.
.	.	.	.	.	.	.	2a/	.
.	.	.	.	.	.	.	[1a	.
=515	=515	=515	=515	=515	=515	=515	=515	=515
0r	.	0B-	.	0d	Chri-	&	1a]	.
.	.	.	.	.	.	.	1g	.
=516	=516	=516	=516	=516	=516	=516	=516	=516
0r	.	0A	-i,	1f	-ste,	.	0a	-i,
.	.	.	.	[1e	fi-	.	.	.
=517	=517	=517	=517	=517	=517	=517	=517	=517
0r	.	0c	de-	1e]	.	.	0r	.
.	.	.	.	1c	-li	.	.	.
=518	=518	=518	=518	=518	=518	=518	=518	=518
0r	.	1B-	.	1d	de-	.	0r	.
.	.	1c	.	[1c	.	.	.	.
=519	=519	=519	=519	=519	=519	=519	=519	=519
0r	.	1A	.	1c]	.	.	0r	.
.	.	1F	.	[1f	.	.	.	.
=520	=520	=520	=520	=520	=520	=520	=520	=520
0r	.	0G	-i,	1f]	.	.	0r	.
.	.	.	.	1e	.	.	.	.
=521	=521	=521	=521	=521	=521	=521	=521	=521
0F	mun-	1r	.	0f	-i,	.	0r	.
.	.	1F	mun-	.	.	.	.	.
=522	=522	=522	=522	=522	=522	=522	=522	=522
1E	.	1G	.	0r	.	.	0r	.
1F	.	1A	.	.	.	.	.	.
=523	=523	=523	=523	=523	=523	=523	=523	=523
1D	.	1F	.	0f	mun-	.	0r	.
1BB-	.	[1B-	.	.	.	.	.	.
=524	=524	=524	=524	=524	=524	=524	=524	=524
0C	.	1B-]	.	1e-i	.	.	0r	.
.	.	1A	.	1c	.	.	.	.
=525	=525	=525	=525	=525	=525	=525	=525	=525
0BB-	-di	0B-	-di	0d	-di	.	0r	.
=526	=526	=526	=526	=526	=526	=526	=526	=526
0F	ve-	0A	ve-	1c	ve-	.	0a	ve-
.	.	.	.	[1A	-ris-	.	.	.
=527	=527	=527	=527	=527	=527	=527	=527	=527
1F	-ris-	1A	-ris-	1A]	.	.	1a	-ris-
1F	-si-	1A	-si-	[1d	-si-	.	1a	-si-
=528	=528	=528	=528	=528	=528	=528	=528	=528
1G	-ma	1B-	-ma	1d]	.	.	1d	-ma
1E	.	1G	.	1c	-ma	.	1g	.
=529	=529	=529	=529	=529	=529	=529	=529	=529
1D	sa-	2A/	sa-	1d	sa-	.	1f	sa-
.	.	2B-\	.	.	.	.	.	.
1C	.	1c	.	1e	.	.	1g	.
=530	=530	=530	=530	=530	=530	=530	=530	=530
0F	-lus,	1.A	.	0c	-lus,	.	[0a	-lus,
.	.	2F/	.	.	.	.	.	.
=531	=531	=531	=531	=531	=531	=531	=531	=531
0r	.	1F	-lus,	0r	.	.	0a]	.
.	.	1f	mi-	.	.	.	.	.
=532	=532	=532	=532	=532	=532	=532	=532	=532
0A	mi-	1e	.	1c	mi-	.	0r	.
.	.	1f	-se-	1c	-se-	.	.	.
=533	=533	=533	=533	=533	=533	=533	=533	=533
1.B-	.	1.g	-re-	1.d	-re-	.	1d	mi-
.	.	.	.	.	.	.	1d	-se-
2A\	-se-	2f\	-re	2c\	-re	.	.	.
=534	=534	=534	=534	=534	=534	=534	=534	=534
1G	-re-	2e\	no-	2.B-\	no-	.	1e	-re-
.	.	2d\	.	.	.	.	.	.
.	.	.	.	4A/	.	.	.	.
1F	-re	[1d	.	[1A	.	.	1f	-re
=535	=535	=535	=535	=535	=535	=535	=535	=535
0E	no-	1d]	.	1A]	.	.	0g	no-
.	.	1c#i	.	1G	.	.	.	.
=536	=536	=536	=536	=536	=536	=536	=536	=536
0Dl;	-bis.	0dl;	-bis.	0Al;	-bis.	.	0fl;	-bis.
=537	=537	=537	=537	=537	=537	=537	=537	=537
0r	.	0r	.	0r	.	.	0g	Chri-
=538	=538	=538	=538	=538	=538	=538	=538	=538
0r	.	0G	Chri-	0r	.	.	0g	-ste,
=539	=539	=539	=539	=539	=539	=539	=539	=539
0r	.	0G	-ste,	0r	.	.	1.b-	fi-
.	.	.	.	.	.	.	2a/	.
=540	=540	=540	=540	=540	=540	=540	=540	=540
0r	.	1.B-	fi-	0r	.	.	1f	.
.	.	.	.	.	.	.	1g	-li
.	.	2A/	.	.	.	.	.	.
=541	=541	=541	=541	=541	=541	=541	=541	=541
0r	.	1F	.	0r	.	.	1a	de-
.	.	1G	-li	.	.	.	[1b-	.
=542	=542	=542	=542	=542	=542	=542	=542	=542
0r	.	0A	de-	0r	.	.	2b-\]	.
.	.	.	.	.	.	.	2a/	.
.	.	.	.	.	.	.	[1a	.
=543	=543	=543	=543	=543	=543	=543	=543	=543
0r	.	0B-	.	0r	.	.	1a]	.
.	.	.	.	.	.	.	1g	.
=544	=544	=544	=544	=544	=544	=544	=544	=544
1r	.	1A	-i,	1r	.	.	0a	-i,
[1A	pre-	[1c	pre-	[1e	pre-	.	.	.
=545	=545	=545	=545	=545	=545	=545	=545	=545
2A\]	.	2c\]	.	2e\]	.	.	1r	.
2A\	-ci-	2c\	-ci-	2e\	-ci-	.	.	.
1A	-bus	1c	-bus	1e	-bus	.	[1a	pre-
=546	=546	=546	=546	=546	=546	=546	=546	=546
1D	sanc-	1.d	sanc-	1.f	sanc-	.	2a/]	.
.	.	.	.	.	.	.	2a/	-ci-
1D	-tis-	.	.	.	.	.	1a	-bus
.	.	2c\	.	4e\	.	.	.	.
.	.	.	.	4d\	.	.	.	.
=547	=547	=547	=547	=547	=547	=547	=547	=547
1.F	.	1.A	-tis-	1c	-tis-	.	1a	sanc-
.	.	.	.	1d	-si-	.	1a	-tis-
2E\	-si-	2B-\	-si-	.	.	.	.	.
=548	=548	=548	=548	=548	=548	=548	=548	=548
0C	-me	0c	-me	1e	-me	.	1g	-si-
.	.	.	.	[1c	ma-	.	[1a	-me
=549	=549	=549	=549	=549	=549	=549	=549	=549
0D	ma-	0F	ma-	1c]	.	.	2a/]	.
.	.	.	.	.	.	.	2f/	.
.	.	.	.	1Bni	.	.	[1f	ma-
=550	=550	=550	=550	=550	=550	=550	=550	=550
0C	-tris,	0G	.	0c	-tris,	.	1f]	.
.	.	.	.	.	.	.	1e	.
=551	=551	=551	=551	=551	=551	=551	=551	=551
1r	.	0F	-tris,	1r	.	.	0f	-tris,
1F	ad-	.	.	1A	ad-	.	.	.
=552	=552	=552	=552	=552	=552	=552	=552	=552
2G\	-ju-	0r	.	1B-	-ju-	.	1r	.
2B-\	.	.	.	.	.	.	.	.
1A	-va	.	.	1c	-va	.	1f	ad-
=553	=553	=553	=553	=553	=553	=553	=553	=553
1G	nos	1r	.	1d	nos	.	2g/	-ju-
.	.	.	.	.	.	.	2b-\	.
1r	.	1F	ad-	1A	.	.	2a/	.
.	.	.	.	.	.	.	2cc\	.
=554	=554	=554	=554	=554	=554	=554	=554	=554
0r	.	2G/	-ju-	1r	.	.	2b-\	.
.	.	2B-\	.	.	.	.	1g	.
.	.	1A	-va	1c	et	.	.	.
.	.	.	.	.	.	.	2f#i/	-va
=555	=555	=555	=555	=555	=555	=555	=555	=555
1r	.	0G	nos	1d	tol-	.	0g	nos
1C	et	.	.	1c	-le	.	.	.
=556	=556	=556	=556	=556	=556	=556	=556	=556
1D	tol-	0r	.	1.f	tri-	.	0r	.
1C	-le	.	.	.	.	.	.	.
.	.	.	.	2e\	-bu-	.	.	.
=557	=557	=557	=557	=557	=557	=557	=557	=557
1.F	tri-	0r	.	1d	-la-	.	0r	.
.	.	.	.	1c	-ti-	.	.	.
2E\	-bu-	.	.	.	.	.	.	.
=558	=558	=558	=558	=558	=558	=558	=558	=558
1D	-la-	0r	.	1f	-o-	.	0r	.
1C	-ti-	.	.	2e\	.	.	.	.
.	.	.	.	[2a\	.	.	.	.
=559	=559	=559	=559	=559	=559	=559	=559	=559
2F\	-o-	0r	.	2a\]	.	.	0r	.
2G\	.	.	.	2g\	.	.	.	.
1A	-nem	.	.	1e	-nem	.	.	.
=560	=560	=560	=560	=560	=560	=560	=560	=560
0D	nos-	0r	.	2f\	nos-	.	0r	.
.	.	.	.	2d\	.	.	.	.
.	.	.	.	[1d	.	.	.	.
=561	=561	=561	=561	=561	=561	=561	=561	=561
0E	.	0r	.	1d]	.	.	0r	.
.	.	.	.	1c#i	.	.	.	.
=562	=562	=562	=562	=562	=562	=562	=562	=562
0D	-tram.	0r	.	[0d	.	.	1r	.
.	.	.	.	.	.	.	1f	et
=563	=563	=563	=563	=563	=563	=563	=563	=563
1G	.	1r	.	0d_	.	.	1g	tol-
1D	et	1F	et	.	.	.	1f	-le
=564	=564	=564	=564	=564	=564	=564	=564	=564
1G	tol-	1G	tol-	0d_	.	.	1.b-	tri-
1D	-le	1F	-le	.	.	.	.	.
.	.	.	.	.	.	.	2a/	-bu-
=565	=565	=565	=565	=565	=565	=565	=565	=565
1G	tri-	1.B-	tri-	0d]	.	.	1g	-la-
1D	-bu-	.	.	.	.	.	1f	-ti-
.	.	2A/	-bu-	.	.	.	.	.
=566	=566	=566	=566	=566	=566	=566	=566	=566
1G	-la-	1G	-la-	[0dl	-tram.	.	1b-	-o-
1D	-ti-	1F	-ti-	.	.	.	2a/	.
.	.	.	.	.	.	.	[2dd\	.
=567	=567	=567	=567	=567	=567	=567	=567	=567
1G	-o-	2B-\	-o-	0d_	.	.	2dd\]	.
.	.	2c\	.	.	.	.	2cc\	.
1F	-nem	1d	-nem	.	.	.	1a	-nem
=568	=568	=568	=568	=568	=568	=568	=568	=568
0G	nos-	0G	nos-	0d_	.	.	2b-\	nos-
.	.	.	.	.	.	.	2g/	.
.	.	.	.	.	.	.	[1g	.
=569	=569	=569	=569	=569	=569	=569	=569	=569
0D	.	0A	.	0d_	.	.	1g]	.
.	.	.	.	.	.	.	1f#i	.
=570	=570	=570	=570	=570	=570	=570	=570	=570
0Gl	-tram.	0Gl	-tram.	0d]	.	.	0gl	-tram.
==	==	==	==	==	==	==	==	==
*-	*-	*-	*-	*-	*-	*-	*-	*-
!!!RDF**kern: V=start of tuplet marker
!!!RDF**kern: Z=end of tuplet marker
!!!RDF**kern: l=long note in original notation
!!!RDF**kern: i=editorial accidental
!!!ENC: Will Watson 11/07/2011
!!!END: 2011/07/11/
!!!EED: Jesse Rodin
!!!EEV: 2024/03/08/
!!attribution-level@Jos: 1 (secure, core group [checkmark])
!!!ONB: Translated from MusicXML and edited on 2011/10/17/ by Craig Sapp
!!muse2ps: C^@{COM}^i2I150v90,90,90,120c122z18l2700t130
